!!!!SEGMENT: pl-wtm--r-1668_stefani-jozef--marcia-funebre.krn
!!!id: 18xx:2373
!!!COM: Stefani, Józef
!!!COM-rism: pe30024097
!!!CDT: 1800/04/16-1876/03/19
!!!CNT: Polish
!!!OTL: Marcia funebre
!!!PDT:
!!!SMS-siglum: PL-Wtm
!!!SMS-shelfmark: R 1668
!!!NIFC-rismID: 1001113304
!!!URL-scan: http://repozytorium.nifc.pl/skany/pl-wtm-nut--r1668
!!!ONB-nifc: UWAGA: razem z introdukcją
!!!SMS-variant:
!!!SMS-altvar:
!!!OMD: Allegro
**kern	**dynam	**kern	**dynam	**kern	**dynam	**kern	**dynam	**kern	**dynam	**kern	**dynam	**kern	**dynam	**kern	**dynam	**kern	**dynam	**kern	**dynam	**kern	**dynam	**kern	**dynam	**kern	**dynam	**kern	**dynam	**kern	**dynam	**kern	**dynam
*	*	*	*	*	*	*group2	*	*group2	*	*	*	*	*	*group1	*	*group1	*	*	*	*	*	*	*	*	*	*	*	*	*	*	*
*	*	*	*	*	*	*I""Violini	*	*I""Violini	*	*	*	*	*	*I""Tromboni	*	*I""Tromboni	*	*	*	*	*	*	*	*	*	*	*	*	*	*	*
*part16	*part16	*part15	*part15	*part14	*part14	*part13	*part13	*part12	*part12	*part11	*part11	*part10	*part10	*part9	*part9	*part8	*part8	*part7	*part7	*part6	*part6	*part5	*part5	*part4	*part4	*part3	*part3	*part2	*part2	*part1	*part1
*staff16	*	*staff15	*	*staff14	*	*staff13	*	*staff12	*	*staff11	*	*staff10	*	*staff9	*	*staff8	*	*staff7	*	*staff6	*	*staff5	*	*staff4	*	*staff3	*	*staff2	*	*staff1	*
*I"C: Baſsi	*	*I"Violoncelli	*	*I"Viole	*	*	*	*I"Violini	*	*I"Triangolo et G. Caſsa	*	*I"in C.G. Timpani	*	*	*	*	*	*I"in C Trombe	*	*I"Fagoto	*	*I"in C Corni	*	*I"in C Clarinetti	*	*I"Oboe	*	*I"F: Piccolo	*	*I"Flauto	*
*>[A,B,B,C,C,D,D,E]	*>[A,B,B,C,C,D,D,E]	*>[A,B,B,C,C,D,D,E]	*>[A,B,B,C,C,D,D,E]	*>[A,B,B,C,C,D,D,E]	*>[A,B,B,C,C,D,D,E]	*>[A,B,B,C,C,D,D,E]	*>[A,B,B,C,C,D,D,E]	*>[A,B,B,C,C,D,D,E]	*>[A,B,B,C,C,D,D,E]	*>[A,B,B,C,C,D,D,E]	*>[A,B,B,C,C,D,D,E]	*>[A,B,B,C,C,D,D,E]	*>[A,B,B,C,C,D,D,E]	*>[A,B,B,C,C,D,D,E]	*>[A,B,B,C,C,D,D,E]	*>[A,B,B,C,C,D,D,E]	*>[A,B,B,C,C,D,D,E]	*>[A,B,B,C,C,D,D,E]	*>[A,B,B,C,C,D,D,E]	*>[A,B,B,C,C,D,D,E]	*>[A,B,B,C,C,D,D,E]	*>[A,B,B,C,C,D,D,E]	*>[A,B,B,C,C,D,D,E]	*>[A,B,B,C,C,D,D,E]	*>[A,B,B,C,C,D,D,E]	*>[A,B,B,C,C,D,D,E]	*>[A,B,B,C,C,D,D,E]	*>[A,B,B,C,C,D,D,E]	*>[A,B,B,C,C,D,D,E]	*>[A,B,B,C,C,D,D,E]	*>[A,B,B,C,C,D,D,E]
*>A	*>A	*>A	*>A	*>A	*>A	*>A	*>A	*>A	*>A	*>A	*>A	*>A	*>A	*>A	*>A	*>A	*>A	*>A	*>A	*>A	*>A	*>A	*>A	*>A	*>A	*>A	*>A	*>A	*>A	*>A	*>A
*clefF4	*	*clefF4	*	*clefC3	*	*clefG2	*	*clefG2	*	*clefF4	*	*clefF4	*	*clefF4	*	*clefC4	*	*clefG2	*	*clefF4	*	*clefG2	*	*clefG2	*	*clefG2	*	*clefG2	*	*clefG2	*
*k[]	*	*k[]	*	*k[]	*	*k[]	*	*k[]	*	*k[]	*	*k[]	*	*k[]	*	*k[]	*	*k[]	*	*k[]	*	*k[]	*	*k[]	*	*k[]	*	*k[]	*	*k[]	*
*M4/4	*	*M4/4	*	*M4/4	*	*M4/4	*	*M4/4	*	*M4/4	*	*M4/4	*	*M4/4	*	*M4/4	*	*M4/4	*	*M4/4	*	*M4/4	*	*M4/4	*	*M4/4	*	*M4/4	*	*M4/4	*
*met(c)	*	*met(c)	*	*met(c)	*	*met(c)	*	*met(c)	*	*met(c)	*	*met(c)	*	*met(c)	*	*met(c)	*	*met(c)	*	*met(c)	*	*met(c)	*	*met(c)	*	*met(c)	*	*met(c)	*	*met(c)	*
=1	=1	=1	=1	=1	=1	=1	=1	=1	=1	=1	=1	=1	=1	=1	=1	=1	=1	=1	=1	=1	=1	=1	=1	=1	=1	=1	=1	=1	=1	=1	=1
*all\right	*	*all\right	*	*all\right	*	*all\right	*	*all\right	*	*all\right	*	*all\right	*	*all\right	*	*all\right	*	*all\right	*	*all\right	*	*all\right	*	*all\right	*	*all\right	*	*all\right	*	*all\right	*
*	*	*	*	*	*	*	*	*	*	*^	*	*	*	*	*	*	*	*^	*	*	*	*	*	*	*	*	*	*	*	*	*
*tremolo	*	*tremolo	*	*tremolo	*	*tremolo	*	*tremolo	*	*tremolo	*	*	*	*	*	*	*	*	*	*	*	*	*	*	*	*	*	*	*	*	*	*	*
!	!LO:DY:rj	!LO:TX:t=P:problem:cała partia wiolonczeli powtórzona z cb	!LO:DY:rj	!	!	!	!	!	!LO:DY:rj	!	!	!	!	!	!	!	!	!LO:DY:rj	!	!	!LO:DY:rj	!	!	!	!LO:DY:rj	!	!	!	!LO:DY:rj	!	!	!LO:TX:a:t=Introducjone	!LO:DY:rj
16F\LL	ff	16F\LLyy	ffy	16a\LL	.	16dd#X\LL	.	16aaLL 16a\	ff	32Ree/LLL	4Ra\	.	1r	.	1F	.	1d#X 1A	ff	1a	1a	ff	1F	.	1ff 1f	ff	1dd#X 1a	.	1aa	ff	1aa	.	1ddd#X	ff
.	.	.	.	.	.	.	.	.	.	32Ree/	.	.	.	.	.	.	.	.	.	.	.	.	.	.	.	.	.	.	.	.	.	.	.
16F\	.	16F\yy	.	16a\	.	16dd#\	.	16aa 16a\	.	32Ree/	.	.	.	.	.	.	.	.	.	.	.	.	.	.	.	.	.	.	.	.	.	.	.
.	.	.	.	.	.	.	.	.	.	32Ree/	.	.	.	.	.	.	.	.	.	.	.	.	.	.	.	.	.	.	.	.	.	.	.
16F\	.	16F\yy	.	16a\	.	16dd#\	.	16aa 16a\	.	32Ree/	.	.	.	.	.	.	.	.	.	.	.	.	.	.	.	.	.	.	.	.	.	.	.
.	.	.	.	.	.	.	.	.	.	32Ree/	.	.	.	.	.	.	.	.	.	.	.	.	.	.	.	.	.	.	.	.	.	.	.
16F\	.	16F\yy	.	16a\	.	16dd#\	.	16aa 16a\	.	32Ree/	.	.	.	.	.	.	.	.	.	.	.	.	.	.	.	.	.	.	.	.	.	.	.
.	.	.	.	.	.	.	.	.	.	32Ree/	.	.	.	.	.	.	.	.	.	.	.	.	.	.	.	.	.	.	.	.	.	.	.
16F\	.	16F\yy	.	16a\	.	16dd#\	.	16aa 16a\	.	32Ree/	4r	.	.	.	.	.	.	.	.	.	.	.	.	.	.	.	.	.	.	.	.	.	.
.	.	.	.	.	.	.	.	.	.	32Ree/	.	.	.	.	.	.	.	.	.	.	.	.	.	.	.	.	.	.	.	.	.	.	.
16F\	.	16F\yy	.	16a\	.	16dd#\	.	16aa 16a\	.	32Ree/	.	.	.	.	.	.	.	.	.	.	.	.	.	.	.	.	.	.	.	.	.	.	.
.	.	.	.	.	.	.	.	.	.	32Ree/	.	.	.	.	.	.	.	.	.	.	.	.	.	.	.	.	.	.	.	.	.	.	.
16F\	.	16F\yy	.	16a\	.	16dd#\	.	16aa 16a\	.	32Ree/	.	.	.	.	.	.	.	.	.	.	.	.	.	.	.	.	.	.	.	.	.	.	.
.	.	.	.	.	.	.	.	.	.	32Ree/	.	.	.	.	.	.	.	.	.	.	.	.	.	.	.	.	.	.	.	.	.	.	.
16F\	.	16F\yy	.	16a\	.	16dd#\	.	16aa 16a\	.	32Ree/	.	.	.	.	.	.	.	.	.	.	.	.	.	.	.	.	.	.	.	.	.	.	.
.	.	.	.	.	.	.	.	.	.	32Ree/	.	.	.	.	.	.	.	.	.	.	.	.	.	.	.	.	.	.	.	.	.	.	.
16F\	.	16F\yy	.	16a\	.	16dd#\	.	16aa 16a\	.	32Ree/	2r	.	.	.	.	.	.	.	.	.	.	.	.	.	.	.	.	.	.	.	.	.	.
.	.	.	.	.	.	.	.	.	.	32Ree/	.	.	.	.	.	.	.	.	.	.	.	.	.	.	.	.	.	.	.	.	.	.	.
16F\	.	16F\yy	.	16a\	.	16dd#\	.	16aa 16a\	.	32Ree/	.	.	.	.	.	.	.	.	.	.	.	.	.	.	.	.	.	.	.	.	.	.	.
.	.	.	.	.	.	.	.	.	.	32Ree/	.	.	.	.	.	.	.	.	.	.	.	.	.	.	.	.	.	.	.	.	.	.	.
16F\	.	16F\yy	.	16a\	.	16dd#\	.	16aa 16a\	.	32Ree/	.	.	.	.	.	.	.	.	.	.	.	.	.	.	.	.	.	.	.	.	.	.	.
.	.	.	.	.	.	.	.	.	.	32Ree/	.	.	.	.	.	.	.	.	.	.	.	.	.	.	.	.	.	.	.	.	.	.	.
16F\	.	16F\yy	.	16a\	.	16dd#\	.	16aa 16a\	.	32Ree/	.	.	.	.	.	.	.	.	.	.	.	.	.	.	.	.	.	.	.	.	.	.	.
.	.	.	.	.	.	.	.	.	.	32Ree/	.	.	.	.	.	.	.	.	.	.	.	.	.	.	.	.	.	.	.	.	.	.	.
16F\	.	16F\yy	.	16a\	.	16dd#\	.	16aa 16a\	.	32Ree/	.	.	.	.	.	.	.	.	.	.	.	.	.	.	.	.	.	.	.	.	.	.	.
.	.	.	.	.	.	.	.	.	.	32Ree/	.	.	.	.	.	.	.	.	.	.	.	.	.	.	.	.	.	.	.	.	.	.	.
16F\	.	16F\yy	.	16a\	.	16dd#\	.	16aa 16a\	.	32Ree/	.	.	.	.	.	.	.	.	.	.	.	.	.	.	.	.	.	.	.	.	.	.	.
.	.	.	.	.	.	.	.	.	.	32Ree/	.	.	.	.	.	.	.	.	.	.	.	.	.	.	.	.	.	.	.	.	.	.	.
16F\	.	16F\yy	.	16a\	.	16dd#\	.	16aa 16a\	.	32Ree/	.	.	.	.	.	.	.	.	.	.	.	.	.	.	.	.	.	.	.	.	.	.	.
.	.	.	.	.	.	.	.	.	.	32Ree/	.	.	.	.	.	.	.	.	.	.	.	.	.	.	.	.	.	.	.	.	.	.	.
16F\JJ	.	16F\JJyy	.	16a\JJ	.	16dd#\JJ	.	16aaJJ 16a\	.	32Ree/	.	.	.	.	.	.	.	.	.	.	.	.	.	.	.	.	.	.	.	.	.	.	.
.	.	.	.	.	.	.	.	.	.	32Ree/JJJ	.	.	.	.	.	.	.	.	.	.	.	.	.	.	.	.	.	.	.	.	.	.	.
*Xtremolo	*	*Xtremolo	*	*Xtremolo	*	*Xtremolo	*	*Xtremolo	*	*Xtremolo	*	*	*	*	*	*	*	*	*	*	*	*	*	*	*	*	*	*	*	*	*	*	*
*	*	*	*	*	*	*	*	*	*	*	*	*	*	*	*	*	*	*	*v	*v	*	*	*	*	*	*	*	*	*	*	*	*	*
=2	=2	=2	=2	=2	=2	=2	=2	=2	=2	=2	=2	=2	=2	=2	=2	=2	=2	=2	=2	=2	=2	=2	=2	=2	=2	=2	=2	=2	=2	=2	=2	=2
4E\	.	4E\yy	.	4g#X\	.	4ee\	.	4bb 4b\	.	4Ree/	4Ra\	.	1r	.	4E\	.	4e 4G#X\	.	4b 4g#X/	.	4E\	.	4ee 4e/	.	4ee 4g#X/	.	4bb\	.	4bb\	.	4eee\	.
4r	.	4ryy	.	4r	.	4r	.	4r	.	4r	4r	.	.	.	4r	.	4r	.	4r	.	4r	.	4r	.	8r	.	8r	.	8r	.	8r	.
.	.	.	.	.	.	.	.	.	.	.	.	.	.	.	.	.	.	.	.	.	.	.	.	.	32r	.	32r	.	32r	.	32r	.
.	.	.	.	.	.	.	.	.	.	.	.	.	.	.	.	.	.	.	.	.	.	.	.	.	(32b\LLL	.	(32b\LLL	.	(32bb\LLL	.	(32bb\LLL	.
.	.	.	.	.	.	.	.	.	.	.	.	.	.	.	.	.	.	.	.	.	.	.	.	.	32cc#X\	.	32cc#X\	.	32ccc#X\	.	32ccc#X\	.
.	.	.	.	.	.	.	.	.	.	.	.	.	.	.	.	.	.	.	.	.	.	.	.	.	32dd#X\JJJ	.	32dd#X\JJJ	.	32ddd#X\JJJ	.	32ddd#X\JJJ	.
2r	.	2ryy	.	2r	.	2r	.	2r	.	2rC	2rG	.	.	.	2r	.	2r	.	2r	.	2r	.	2r	.	4ee\)	.	4ee\)	.	4eee\)	.	4eee\)	.
.	.	.	.	.	.	.	.	.	.	.	.	.	.	.	.	.	.	.	.	.	.	.	.	.	4r	.	4r	.	4r	.	4r	.
=3	=3	=3	=3	=3	=3	=3	=3	=3	=3	=3	=3	=3	=3	=3	=3	=3	=3	=3	=3	=3	=3	=3	=3	=3	=3	=3	=3	=3	=3	=3	=3	=3
*	*	*	*	*	*	*	*	*	*	*	*	*	*	*	*	*	*	*	*^	*	*	*	*	*	*	*	*	*	*	*	*	*
*tremolo	*	*tremolo	*	*tremolo	*	*tremolo	*	*tremolo	*	*tremolo	*	*	*	*	*	*	*	*	*	*	*	*	*	*	*	*	*	*	*	*	*	*	*
16F\LL	.	16F\LLyy	.	16a\LL	.	16dd#X\LL	.	16aaLL 16a\	.	32Ree/LLL	4Ra\	.	1r	.	1F	.	1d#X 1A	.	1a	1a	.	1F	.	1ff 1f	.	1dd#X 1a	.	1aa	.	1aa	.	1ddd#X	.
.	.	.	.	.	.	.	.	.	.	32Ree/	.	.	.	.	.	.	.	.	.	.	.	.	.	.	.	.	.	.	.	.	.	.	.
16F\	.	16F\yy	.	16a\	.	16dd#\	.	16aa 16a\	.	32Ree/	.	.	.	.	.	.	.	.	.	.	.	.	.	.	.	.	.	.	.	.	.	.	.
.	.	.	.	.	.	.	.	.	.	32Ree/	.	.	.	.	.	.	.	.	.	.	.	.	.	.	.	.	.	.	.	.	.	.	.
16F\	.	16F\yy	.	16a\	.	16dd#\	.	16aa 16a\	.	32Ree/	.	.	.	.	.	.	.	.	.	.	.	.	.	.	.	.	.	.	.	.	.	.	.
.	.	.	.	.	.	.	.	.	.	32Ree/	.	.	.	.	.	.	.	.	.	.	.	.	.	.	.	.	.	.	.	.	.	.	.
16F\	.	16F\yy	.	16a\	.	16dd#\	.	16aa 16a\	.	32Ree/	.	.	.	.	.	.	.	.	.	.	.	.	.	.	.	.	.	.	.	.	.	.	.
.	.	.	.	.	.	.	.	.	.	32Ree/	.	.	.	.	.	.	.	.	.	.	.	.	.	.	.	.	.	.	.	.	.	.	.
16F\	.	16F\yy	.	16a\	.	16dd#\	.	16aa 16a\	.	32Ree/	4r	.	.	.	.	.	.	.	.	.	.	.	.	.	.	.	.	.	.	.	.	.	.
.	.	.	.	.	.	.	.	.	.	32Ree/	.	.	.	.	.	.	.	.	.	.	.	.	.	.	.	.	.	.	.	.	.	.	.
16F\	.	16F\yy	.	16a\	.	16dd#\	.	16aa 16a\	.	32Ree/	.	.	.	.	.	.	.	.	.	.	.	.	.	.	.	.	.	.	.	.	.	.	.
.	.	.	.	.	.	.	.	.	.	32Ree/	.	.	.	.	.	.	.	.	.	.	.	.	.	.	.	.	.	.	.	.	.	.	.
16F\	.	16F\yy	.	16a\	.	16dd#\	.	16aa 16a\	.	32Ree/	.	.	.	.	.	.	.	.	.	.	.	.	.	.	.	.	.	.	.	.	.	.	.
.	.	.	.	.	.	.	.	.	.	32Ree/	.	.	.	.	.	.	.	.	.	.	.	.	.	.	.	.	.	.	.	.	.	.	.
16F\	.	16F\yy	.	16a\	.	16dd#\	.	16aa 16a\	.	32Ree/	.	.	.	.	.	.	.	.	.	.	.	.	.	.	.	.	.	.	.	.	.	.	.
.	.	.	.	.	.	.	.	.	.	32Ree/	.	.	.	.	.	.	.	.	.	.	.	.	.	.	.	.	.	.	.	.	.	.	.
16F\	.	16F\yy	.	16a\	.	16dd#\	.	16aa 16a\	.	32Ree/	2r	.	.	.	.	.	.	.	.	.	.	.	.	.	.	.	.	.	.	.	.	.	.
.	.	.	.	.	.	.	.	.	.	32Ree/	.	.	.	.	.	.	.	.	.	.	.	.	.	.	.	.	.	.	.	.	.	.	.
16F\	.	16F\yy	.	16a\	.	16dd#\	.	16aa 16a\	.	32Ree/	.	.	.	.	.	.	.	.	.	.	.	.	.	.	.	.	.	.	.	.	.	.	.
.	.	.	.	.	.	.	.	.	.	32Ree/	.	.	.	.	.	.	.	.	.	.	.	.	.	.	.	.	.	.	.	.	.	.	.
16F\	.	16F\yy	.	16a\	.	16dd#\	.	16aa 16a\	.	32Ree/	.	.	.	.	.	.	.	.	.	.	.	.	.	.	.	.	.	.	.	.	.	.	.
.	.	.	.	.	.	.	.	.	.	32Ree/	.	.	.	.	.	.	.	.	.	.	.	.	.	.	.	.	.	.	.	.	.	.	.
16F\	.	16F\yy	.	16a\	.	16dd#\	.	16aa 16a\	.	32Ree/	.	.	.	.	.	.	.	.	.	.	.	.	.	.	.	.	.	.	.	.	.	.	.
.	.	.	.	.	.	.	.	.	.	32Ree/	.	.	.	.	.	.	.	.	.	.	.	.	.	.	.	.	.	.	.	.	.	.	.
16F\	.	16F\yy	.	16a\	.	16dd#\	.	16aa 16a\	.	32Ree/	.	.	.	.	.	.	.	.	.	.	.	.	.	.	.	.	.	.	.	.	.	.	.
.	.	.	.	.	.	.	.	.	.	32Ree/	.	.	.	.	.	.	.	.	.	.	.	.	.	.	.	.	.	.	.	.	.	.	.
16F\	.	16F\yy	.	16a\	.	16dd#\	.	16aa 16a\	.	32Ree/	.	.	.	.	.	.	.	.	.	.	.	.	.	.	.	.	.	.	.	.	.	.	.
.	.	.	.	.	.	.	.	.	.	32Ree/	.	.	.	.	.	.	.	.	.	.	.	.	.	.	.	.	.	.	.	.	.	.	.
16F\	.	16F\yy	.	16a\	.	16dd#\	.	16aa 16a\	.	32Ree/	.	.	.	.	.	.	.	.	.	.	.	.	.	.	.	.	.	.	.	.	.	.	.
.	.	.	.	.	.	.	.	.	.	32Ree/	.	.	.	.	.	.	.	.	.	.	.	.	.	.	.	.	.	.	.	.	.	.	.
16F\JJ	.	16F\JJyy	.	16a\JJ	.	16dd#\JJ	.	16aaJJ 16a\	.	32Ree/	.	.	.	.	.	.	.	.	.	.	.	.	.	.	.	.	.	.	.	.	.	.	.
.	.	.	.	.	.	.	.	.	.	32Ree/JJJ	.	.	.	.	.	.	.	.	.	.	.	.	.	.	.	.	.	.	.	.	.	.	.
*Xtremolo	*	*Xtremolo	*	*Xtremolo	*	*Xtremolo	*	*Xtremolo	*	*Xtremolo	*	*	*	*	*	*	*	*	*	*	*	*	*	*	*	*	*	*	*	*	*	*	*
*	*	*	*	*	*	*	*	*	*	*	*	*	*	*	*	*	*	*	*v	*v	*	*	*	*	*	*	*	*	*	*	*	*	*
=	=	=	=	=	=	=	=	=	=	=	=	=	=	=	=	=	=	=	=	=	=	=	=	=	=	=	=	=	=	=	=	=
4E\	.	4E\yy	.	4g#X\	.	4ee\	.	4gg#X 4b\	.	4Ree/	4Ra\	.	4ryy	.	4E\	.	4e 4G#X\	.	4b 4g#X/	.	4E\	.	4ee 4e/	.	4ee 4g#X/	.	4gg#X\	.	4gg#X\	.	4eee\	.
4r	.	4ryy	.	4r	.	4r	.	4r	.	4r	4ryy	.	4r	.	4r	.	4r	.	4r	.	4r	.	4r	.	8.r	.	4r	.	8.r	.	8.r	.
.	.	.	.	.	.	.	.	.	.	.	.	.	.	.	.	.	.	.	.	.	.	.	.	.	(32a/LLL	.	.	.	(32gg#\LLL	.	(32gg#X\LLL	.
.	.	.	.	.	.	.	.	.	.	.	.	.	.	.	.	.	.	.	.	.	.	.	.	.	32b/JJ	.	.	.	32bb\JJ)	.	32bb\JJ)	.
4r;	.	4r;yy	.	4r;	.	4r;	.	4r;	.	4r;	4ryy	.	4r;	.	4r;	.	4r;	.	4r;	.	4r;	.	4r;	.	8e/J)	.	4r;	.	8ee\J	.	8ee\J	.
.	.	.	.	.	.	.	.	.	.	.	.	.	.	.	.	.	.	.	.	.	.	.	.	.	8r;	.	.	.	8r;	.	8r;	.
*	*	*	*	*	*	*	*	*	*	*v	*v	*	*	*	*	*	*	*	*	*	*	*	*	*	*	*	*	*	*	*	*	*
!!LO:PB:g=original
=4||	=4||	=4||	=4||	=4||	=4||	=4||	=4||	=4||	=4||	=4||	=4||	=4||	=4||	=4||	=4||	=4||	=4||	=4||	=4||	=4||	=4||	=4||	=4||	=4||	=4||	=4||	=4||	=4||	=4||	=4||	=4||
!!!OMD: Adagio.
!	!	!	!	!	!	!	!	!	!LO:DY:rj	!	!	!	!	!	!	!	!	!	!	!	!	!	!	!	!	!	!	!	!	!LO:TX:a:t=Marcia Funèbre	!
4r	.	4ryy	.	4r	.	4r	.	8.e/L	p	4r	.	4r	.	4r	.	4r	.	4r	.	4r	.	4r	.	8.e/L	p	4r	.	4r	.	4r	.
.	.	.	.	.	.	.	.	16e/Jk	.	.	.	.	.	.	.	.	.	.	.	.	.	.	.	16e/Jk	.	.	.	.	.	.	.
=5	=5	=5	=5	=5	=5	=5	=5	=5	=5	=5	=5	=5	=5	=5	=5	=5	=5	=5	=5	=5	=5	=5	=5	=5	=5	=5	=5	=5	=5	=5	=5
*	*	*	*	*	*	*	*	*	*	*^	*	*	*	*	*	*	*	*	*	*	*	*^	*	*	*	*	*	*	*	*	*
!	!LO:DY:rj	!	!LO:DY:rj	!	!	!	!	!	!	!	!	!	!	!	!	!	!	!	!	!	!	!	!	!	!LO:DY:rj	!	!	!	!	!	!	!	!
4AA/	p	4AA/yy	py	4A/	.	4c/	.	4a/	.	1r	1r	.	2r	.	1r	.	1r	.	2r	.	4A\	.	4ee/	4cc\	p	4a/	.	2r	.	1r	.	2r	.
8.BB/L	.	8.BB/Lyy	.	8.B/L	.	8.d/L	.	8.g/L	.	.	.	.	.	.	.	.	.	.	.	.	8.B\L	.	8.dd/L	8.dd\L	.	8.g/L	.	.	.	.	.	.	.
16BB/Jk	.	16BB/Jkyy	.	16B/Jk	.	16d/Jk	.	16f/Jk	.	.	.	.	.	.	.	.	.	.	.	.	16B\Jk	.	16dd/Jk	16dd\Jk	.	16f/Jk	.	.	.	.	.	.	.
4C/	.	4C/yy	.	4c/	.	4c/	.	4e/	.	.	.	.	4r	.	.	.	.	.	4r	p	4c\	.	4ee/	4cc\	.	4e/	.	4r	.	.	.	4r	.
!	!	!	!	!	!	!	!	!	!LO:HP:a	!	!	!	!	!LO:DY:rj	!	!	!	!	!	!	!	!	!	!	!	!	!	!	!LO:DY:rj	!	!	!	!LO:DY:rj
4r	.	4ryy	.	4r	.	4r	.	8.g/L	<	.	.	.	8.GG/L	p	.	.	.	.	8.g/L	<	4r	.	4r	4ryy	.	4r	.	8.gg\L	p <	.	.	8.gg\L	p <
.	.	.	.	.	.	.	.	16g/Jk	[[	.	.	.	16GG/Jk	.	.	.	.	.	16g/Jk	.	.	.	.	.	.	.	.	16gg\Jk	.	.	.	16gg\Jk	.
*	*	*	*	*	*	*	*	*	*	*	*	*	*	*	*	*	*	*	*	*	*	*	*v	*v	*	*	*	*	*	*	*	*	*
=6	=6	=6	=6	=6	=6	=6	=6	=6	=6	=6	=6	=6	=6	=6	=6	=6	=6	=6	=6	=6	=6	=6	=6	=6	=6	=6	=6	=6	=6	=6	=6	=6
*	*	*	*	*	*	*	*	*	*	*	*	*	*	*	*	*	*	*	*^	*	*	*	*	*	*^	*	*	*	*	*	*	*
!	!	!	!	!	!	!	!	!	!LO:HP:a	!	!	!	!	!	!	!	!	!	!	!	!	!	!	!	!	!	!	!	!	!	!	!	!	!
4C/	.	4C/yy	.	4c\	.	4g/	.	4ee\	>	1r	1r	.	4C/	.	1r	.	1r	.	4ee/	4cc\	[ >	4C/	.	2r	.	2r	2ryy	.	4gg\	[ >	1r	.	4eee\	[ >
8.D\L	.	8.D\Lyy	.	8.d\L	.	8.f#X/L	.	8.dd\L	]	.	.	.	4r	.	.	.	.	.	8.dd/L	8.a\L	]	8.D\L	.	.	.	.	.	.	8.ff#X\L	]	.	.	8.ddd\L	]]
16D#X\Jk	.	16D#X\Jkyy	.	16d#X\Jk	.	16f#/Jk	.	16cc\Jk	.	.	.	.	.	.	.	.	.	.	16cc/Jk	16a\Jk	.	16D#X\Jk	.	.	.	.	.	.	16ff#\Jk	.	.	.	16ccc\Jk	.
4E\	.	4E\yy	.	4e\	.	4g/	.	4b\	.	.	.	.	2r	.	.	.	.	.	4b/	4g\	.	4E\	.	4r	.	4r	4ryy	.	4gg\	.	.	.	4bb\	.
8.Dn\L	.	8.Dn\Lyy	.	8.eL 8.dn\	.	8.g#X/L	.	8.b\L	.	.	.	.	.	.	.	.	.	.	4r	4ryy	.	4r	.	8.eeL 8.dd\	.	8.b/L	8.g#X\L	.	8.gg#X\L	.	.	.	8.bb\L	.
16D\Jk	.	16D\Jkyy	.	16eJk 16d\	.	16g#/Jk	.	16b\Jk	.	.	.	.	.	.	.	.	.	.	.	.	.	.	.	16eeJk 16dd\	.	16b/Jk	16g#\Jk	.	16gg#\Jk	.	.	.	16bb\Jk	.
*	*	*	*	*	*	*	*	*	*	*	*	*	*	*	*	*	*	*	*v	*v	*	*	*	*	*	*	*	*	*	*	*	*	*	*
=7	=7	=7	=7	=7	=7	=7	=7	=7	=7	=7	=7	=7	=7	=7	=7	=7	=7	=7	=7	=7	=7	=7	=7	=7	=7	=7	=7	=7	=7	=7	=7	=7	=7
*	*	*	*	*	*	*	*	*	*	*	*	*	*	*	*^	*	*	*	*	*	*	*	*	*	*	*	*	*	*	*	*	*	*
4C/	.	4C/yy	.	4e 4c\	.	4a/	.	4ee\	.	4r	1r	.	1r	.	2r	2ryy	.	2r	.	2r	.	4r	.	4ee 4cc\	.	4ee/	4a\	.	4aa\	.	1r	.	4eee\	.
!	!LO:HP:a	!	!.	!	!	!	!	!	!LO:HP:a	!	!	!	!	!	!	!	!	!	!	!	!	!	!	!	!	!	!	!	!	!	!	!	!	!
8.C/L	<	8.C/Lyy	.	8.c/L	<	8.e/L	.	8.a/L	<	8.Ree/L	.	.	.	.	.	.	.	.	.	.	.	8.C/L	.	8.eeL 8.cc\	<	8.a/L	8.e\L	.	8.ee\L	.	.	.	8.aa\L	<
16BB/Jk	.	16BB/Jkyy	.	16B/Jk	.	16e/Jk	.	16g#X/Jk	.	16Ree/Jk	.	.	.	.	.	.	.	.	.	.	.	16BB/Jk	.	16eeJk 16b\	.	16g#X/Jk	16e\Jk	.	16ee\Jk	.	.	.	16gg#X\Jk	.
4C/	.	4C/yy	.	4c/	.	4e/	.	4a/	.	4Ree/	.	.	.	.	4r	4ryy	.	4r	.	4r	.	4C/	.	4ee 4cc\	.	4a/	4e\	.	4ee\	.	.	.	4aa\	.
4C/	[[	4C/yy	.	4f#X 4c\	[	4e/	.	4a#X/	[[	4Ree/	.	.	.	.	4F#X 4C/	4C\	.	4e 4A#X\	<[	4a#X 4f#X/	<[	4C/	.	4ee 4cc\	[	4a#X/	4f#X\	.	4ee\	.	.	.	4aa#X\	[
*	*	*	*	*	*	*	*	*	*	*	*	*	*	*	*v	*v	*	*	*	*	*	*	*	*	*	*v	*v	*	*	*	*	*	*	*
!!LO:PB:g=original
=8	=8	=8	=8	=8	=8	=8	=8	=8	=8	=8	=8	=8	=8	=8	=8	=8	=8	=8	=8	=8	=8	=8	=8	=8	=8	=8	=8	=8	=8	=8	=8	=8
*	*	*	*	*	*	*	*	*	*	*	*	*	*	*	*	*	*	*	*^	*	*^	*	*	*	*	*	*	*	*	*	*	*
!LO:TX:t=P:problem:mixed beam	!LO:DY:rj	!LO:TX:t=P:problem:mixed beam	!LO:DY:rj	!	!LO:DY:rj	!	!	!	!LO:DY:rj	!	!	!	!	!	!	!	!	!LO:DY:rj	!	!	!LO:DY:rj	!	!	!LO:DY:rj	!	!	!	!	!	!LO:DY:rj	!	!	!	!LO:DY:rj
8.BB/L	f	8.BB/Lyy	fy	8.f#XL 8.B\	f	8.d#X/L	.	8.b\L	f	8.Ree/L	4Ra\	.	1r	.	8.F#XL 8.BB\	.	8.d#XL 8.B\	f	8.b/L	4.f\	f	4BB/	8.BB\L	f	8.dd#XL 8.b\	f	8.bL 8.f#X/	.	8.dd#X\L	f	8.r	.	8.bb\L	f
16B\K	.	16B\Kyy	.	16b\K	.	16B/K	.	16b\K	.	16Ree/Jk	.	.	.	.	16F#K 16BB\	.	16d#K 16B\	.	16B/	.	.	.	16B\	.	16dd#K 16b\	.	16b/K	.	16b\K	.	16b\KL	.	16bb\K	.
*	*	*	*	*	*	*	*	*	*	*rep	*	*	*	*	*	*	*	*	*	*	*	*	*	*	*	*	*	*	*	*	*	*	*	*
8.F#X\	.	8.F#X\yy	.	8.g\	.	8.d#/	.	8.dd#X\	.	8.Ree/L	4Ra\	.	.	.	8.F# 8.BB\	.	8.d# 8.B\	.	8.d#X/	.	.	2ryy	8.F#X\	.	8.dd# 8.b\	.	8.dd#X/	.	8.dd#\	.	8.dd#X\	.	8.ddd#X\	.
.	.	.	.	.	.	.	.	.	.	.	.	.	.	.	.	.	.	.	.	8ryy	.	.	.	.	.	.	.	.	.	.	.	.	.	.
16D#X\Jk	.	16D#X\Jkyy	.	16d#X\Jk	.	16f#X/Jk	.	16ff#X\Jk	.	16Ree/Jk	.	.	.	.	16F#Jk 16BB\	.	16d#Jk 16B\	.	16f#X/Jk	.	.	.	16D#X\Jk	.	16dd#Jk 16b\	.	16ff#X/Jk	.	16ff#X\Jk	.	16ff#X\Jk	.	16fff#X\Jk	.
*	*	*	*	*	*	*	*	*	*	*Xrep	*	*	*	*	*	*	*	*	*	*	*	*	*	*	*	*	*	*	*	*	*	*	*	*
4BB/	.	4BB/yy	.	4B/	.	4dd#X 4f# 4B/	.	4bb 4b\	.	4Ree/	4Ra\	.	.	.	4F# 4BB\	.	4d# 4B\	.	4b/	2ryy	.	.	4BB/	.	4dd# 4b\	.	4b/	.	4bb\	.	4bb\	.	4bb\	.
4r	.	4ryy	.	4r	.	4r	.	8.b\L	.	4r	4r	.	.	.	4r	.	4r	.	4r	.	.	4ryy	4r	.	4r	.	4r	.	4r	.	4r	.	4r	.
.	.	.	.	.	.	.	.	16b\Jk	.	.	.	.	.	.	.	.	.	.	.	.	.	.	.	.	.	.	.	.	.	.	.	.	.	.
*	*	*	*	*	*	*	*	*	*	*	*	*	*	*	*	*	*	*	*	*	*	*v	*v	*	*	*	*	*	*	*	*	*	*	*
=9	=9	=9	=9	=9	=9	=9	=9	=9	=9	=9	=9	=9	=9	=9	=9	=9	=9	=9	=9	=9	=9	=9	=9	=9	=9	=9	=9	=9	=9	=9	=9	=9	=9
*	*	*	*	*	*	*	*	*	*	*	*	*	*	*	*	*	*	*	*	*	*	*	*	*^	*	*	*	*	*	*	*	*	*
*	*	*	*	*	*	*	*	*2\right	*	*	*	*	*	*	*	*	*	*	*	*	*	*	*	*	*	*	*	*	*	*	*	*	*	*
!	!LO:DY:rj	!	!LO:DY:rj	!	!	!	!	!	!	!	!	!	!	!	!	!	!	!	!	!	!	!	!	!	!	!LO:DY:a	!	!	!	!	!	!	!	!
4AA/	p	4AA/yy	py	4A/	.	[2a/	.	[2cc\	p	2r	1rGG	.	1r	.	1r	.	1r	.	1r	1r	.	1r	.	8r	1re	p	1r	.	1r	.	1r	.	1r	.
.	.	.	.	.	.	.	.	.	.	.	.	.	.	.	.	.	.	.	.	.	.	.	.	16ee/LL	.	.	.	.	.	.	.	.	.	.
.	.	.	.	.	.	.	.	.	.	.	.	.	.	.	.	.	.	.	.	.	.	.	.	16ee/JJ	.	.	.	.	.	.	.	.	.	.
8.A\L	.	8.A\Lyy	.	8.a\L	.	.	.	.	.	.	.	.	.	.	.	.	.	.	.	.	.	.	.	8ee/	.	.	.	.	.	.	.	.	.	.
.	.	.	.	.	.	.	.	.	.	.	.	.	.	.	.	.	.	.	.	.	.	.	.	8r	.	.	.	.	.	.	.	.	.	.
16G\Jk	.	16G\Jkyy	.	16g\Jk	.	.	.	.	.	.	.	.	.	.	.	.	.	.	.	.	.	.	.	.	.	.	.	.	.	.	.	.	.	.
*2\right	*	*2\right	*	*2\right	*	*	*	*	*	*	*	*	*	*	*	*	*	*	*	*	*	*	*	*	*	*	*	*	*	*	*	*	*	*
!	!	!	!	!	!	!	!	!	!	!	!	!LO:DY:a:rj	!	!	!	!	!	!	!	!	!	!	!	!	!	!	!	!	!	!	!	!	!	!
(2F#X\	.	(y2F#X\yy	.	(2f#X\	.	8.a/L]	.	8.cc\L]	.	4Ree/	.	p	.	.	.	.	.	.	.	.	.	.	.	2r	.	.	.	.	.	.	.	.	.	.
.	.	.	.	.	.	16a/K	.	16a\K	.	.	.	.	.	.	.	.	.	.	.	.	.	.	.	.	.	.	.	.	.	.	.	.	.	.
.	.	.	.	.	.	8.a/	.	8.dd\	.	4r	.	.	.	.	.	.	.	.	.	.	.	.	.	.	.	.	.	.	.	.	.	.	.	.
.	.	.	.	.	.	16a/Jk	.	16cc\Jk	.	.	.	.	.	.	.	.	.	.	.	.	.	.	.	.	.	.	.	.	.	.	.	.	.	.
*	*	*	*	*	*	*	*	*	*	*	*	*	*	*	*	*	*	*	*v	*v	*	*	*	*	*	*	*	*	*	*	*	*	*	*
=10	=10	=10	=10	=10	=10	=10	=10	=10	=10	=10	=10	=10	=10	=10	=10	=10	=10	=10	=10	=10	=10	=10	=10	=10	=10	=10	=10	=10	=10	=10	=10	=10	=10
4G\)	.	4G\)yy	.	4g\)	.	[2g/	.	[2b\	.	2r	1rGG	.	1r	.	1r	.	1r	.	1r	.	1r	.	8r	1re	.	1r	.	1r	.	1r	.	1r	.
.	.	.	.	.	.	.	.	.	.	.	.	.	.	.	.	.	.	.	.	.	.	.	16dd/LL	.	.	.	.	.	.	.	.	.	.
.	.	.	.	.	.	.	.	.	.	.	.	.	.	.	.	.	.	.	.	.	.	.	16dd/JJ	.	.	.	.	.	.	.	.	.	.
8.G\L	.	8.G\Lyy	.	8.g\L	.	.	.	.	.	.	.	.	.	.	.	.	.	.	.	.	.	.	8dd/	.	.	.	.	.	.	.	.	.	.
.	.	.	.	.	.	.	.	.	.	.	.	.	.	.	.	.	.	.	.	.	.	.	8r	.	.	.	.	.	.	.	.	.	.
16F#X\Jk	.	16F#X\Jkyy	.	16f#X\Jk	.	.	.	.	.	.	.	.	.	.	.	.	.	.	.	.	.	.	.	.	.	.	.	.	.	.	.	.	.
(2E\	.	(y2E\yy	.	(2e\	.	8.g/L]	.	8.b\L]	.	4Ree/	.	.	.	.	.	.	.	.	.	.	.	.	2r	.	.	.	.	.	.	.	.	.	.
.	.	.	.	.	.	16g/K	.	16g\K	.	.	.	.	.	.	.	.	.	.	.	.	.	.	.	.	.	.	.	.	.	.	.	.	.
.	.	.	.	.	.	8.g/	.	8.cc\	.	4r	.	.	.	.	.	.	.	.	.	.	.	.	.	.	.	.	.	.	.	.	.	.	.
.	.	.	.	.	.	16g/Jk	.	16b\Jk	.	.	.	.	.	.	.	.	.	.	.	.	.	.	.	.	.	.	.	.	.	.	.	.	.
=11	=11	=11	=11	=11	=11	=11	=11	=11	=11	=11	=11	=11	=11	=11	=11	=11	=11	=11	=11	=11	=11	=11	=11	=11	=11	=11	=11	=11	=11	=11	=11	=11	=11
4F#X\)	.	4F#X\)yy	.	4f#X\)	.	[2f#X/	.	[2a/	.	2r	1rGG	.	1r	.	1r	.	1r	.	1r	.	2r	.	8r	8ryy	.	2r	.	2r	.	1r	.	2r	.
.	.	.	.	.	.	.	.	.	.	.	.	.	.	.	.	.	.	.	.	.	.	.	16b/LL	16b\LL	.	.	.	.	.	.	.	.	.
.	.	.	.	.	.	.	.	.	.	.	.	.	.	.	.	.	.	.	.	.	.	.	16b/JJ	16b\JJ	.	.	.	.	.	.	.	.	.
8.F#\L	.	8.F#\Lyy	.	8.f#\L	.	.	.	.	.	.	.	.	.	.	.	.	.	.	.	.	.	.	[4b/	[4b\	.	.	.	.	.	.	.	.	.
16E\Jk	.	16E\Jkyy	.	16e\Jk	.	.	.	.	.	.	.	.	.	.	.	.	.	.	.	.	.	.	.	.	.	.	.	.	.	.	.	.	.
2D#X\	.	2D#X\yy	.	2d#X\	.	8.f#/L]	.	8.a/L]	.	4Ree/	.	.	.	.	.	.	.	.	.	.	8.r	.	8.b/L]	8.b\L]	.	8.r	.	8.r	.	.	.	8.r	.
!	!	!	!	!	!	!	!	!	!	!	!	!	!	!	!	!	!	!	!	!	!	!	!	!	!	!	!	!	!LO:DY:rj	!	!	!	!LO:DY:rj
.	.	.	.	.	.	16f#K 16B/	.	16f#X/K	.	.	.	.	.	.	.	.	.	.	.	.	16D#X\KL	.	16b/Jk	16b\K	.	16dd#XKL 16b\	.	16ff#X\KL	p	.	.	16ff#X\Lk	p
.	.	.	.	.	.	8.f# 8.B/	.	8.b/	.	4r	.	.	.	.	.	.	.	.	.	.	8.D#\	.	8.b/L	8.b\	.	8.dd# 8.b\	.	8.ff#\	.	.	.	8.bb\	.
.	.	.	.	.	.	16f#Jk 16B/	.	16a/Jk	.	.	.	.	.	.	.	.	.	.	.	.	16D#\Jk	.	16b/Jk	16b\Jk	.	16dd#Jk 16b\	.	16ff#\Jk	.	.	.	16aa\Jk	.
*	*	*	*	*	*	*	*	*	*	*	*	*	*	*	*	*	*	*	*	*	*	*	*v	*v	*	*	*	*	*	*	*	*	*
!!LO:PB:g=original
=	=	=	=	=	=	=	=	=	=	=	=	=	=	=	=	=	=	=	=	=	=	=	=	=	=	=	=	=	=	=	=	=
*	*	*	*	*	*	*	*	*	*	*	*	*	*	*	*	*	*	*	*	*	*	*	*	*	*^	*	*	*	*	*	*	*
!	!LO:HP:a	!	!	!	!	!	!	!	!	!	!	!	!	!	!	!	!	!	!	!	!	!.	!	!	!	!	!	!	!	!	!	!	!
8.E\L	<	8.E\Lyy	.	8.e\L	.	8.eL 8.B/	.	8.g/L	<	8.r	2rC	.	2r	.	4r	.	4r	.	8.gL 8.e/	.	8.E\L	.	8.eeL 8.b\	<	8.eeL 8.b\	2ryy	.	8.gg\L	.	8.r	.	8.gg\L	<
16D\Jk	.	16D\Jkyy	.	16d\Jk	.	16eJk 16B/	<	16g/Jk	.	16Ree/KL	.	.	.	.	.	.	.	.	16g#XJk 16e/	.	16D\Jk	.	16eeJk 16b\	.	16eeJk 16b\	.	.	16gg#X\Jk	<	16gg#X\	.	16gg#X\Jk	.
8.C\L	.	8.C\Lyy	.	8.c\L	.	8.eL 8.A/	.	8.a\L	.	8.Ree/	.	.	.	.	8.r	.	8.r	.	8.aL 8.e/	.	8.C\L	.	8.eeL 8.cc\	[	8.eeL 8.a\	.	.	8.aa\L	.	8.aa\L	.	8.aa\L	[ f
!	!	!	!	!	!	!	!	!	!	!	!	!	!	!	!	!	!	!LO:DY:rj	!	!	!	!	!	!	!	!	!	!	!	!	!	!	!
16F\Jk	[	16F\Jkyy	.	16f\Jk	.	16ddJk 16d/	.	16aaJk 16a\	[	16Ree/Jk	.	.	.	.	16F\	.	16d 16A\	f	16ddJk 16d/	.	16F\Jk	.	16dd\Jk	.	16ddJk 16a\	.	.	16aa\Jk	[	16aaa\Jk	.	16aaa\Jk	.
!	!LO:DY:a:rj	!	!	!	!	!	!	!	!LO:DY:rj	!	!	!LO:DY:rj	!	!	!	!	!	!	!	!	!	!	!	!LO:DY:rj	!	!	!LO:DY:rj	!	!LO:DY:rj	!	!	!	!
4E\	f	4E\yy	.	4e\	.	4b 4e/	[ f	4gg#X 4b\	f	4Ree/	4Ra\	f	4r	.	4E\	.	4e 4G#X\	.	4b 4e/	.	4E\	.	4ee\	f	4b/	4g#X\	f	4gg#X\	f	4ggg#X\	.	4ggg#X\	.
=12!|:	=12!|:	=12!|:	=12!|:	=12!|:	=12!|:	=12!|:	=12!|:	=12!|:	=12!|:	=12!|:	=12!|:	=12!|:	=12!|:	=12!|:	=12!|:	=12!|:	=12!|:	=12!|:	=12!|:	=12!|:	=12!|:	=12!|:	=12!|:	=12!|:	=12!|:	=12!|:	=12!|:	=12!|:	=12!|:	=12!|:	=12!|:	=12!|:	=12!|:
*>B	*>B	*>B	*>B	*>B	*>B	*>B	*>B	*>B	*>B	*>B	*>B	*>B	*>B	*>B	*>B	*>B	*>B	*>B	*>B	*>B	*>B	*>B	*>B	*>B	*>B	*>B	*>B	*>B	*>B	*>B	*>B	*>B	*>B
*	*	*	*	*	*	*	*	*^	*	*	*	*	*	*	*	*	*	*	*	*	*	*	*	*	*	*	*	*	*	*	*	*	*
!	!LO:DY:a:rj	!	!	!	!LO:DY:rj	!	!	!	!	!LO:DY:rj	!	!	!	!	!	!	!	!	!LO:DY:rj	!	!	!	!	!	!LO:DY:rj	!	!	!LO:DY:rj	!	!LO:DY:rj	!	!	!	!
8.E\L	ff	8.E\Lyy	.	8.e\L	ff	8.e/L	.	8.ee/L	8.ee\L	ff	4r	4ryy	.	4r	.	8.E\L	.	8.e\L	ff	4r	.	8.E\L	.	8.ee\L	ff	8.ee/L	8.ee\L	ff	8.ee\L	ff	4r	.	4r	.
16E\Jk	.	16E\Jkyy	.	16e\Jk	.	16e/Jk	.	16ee/Jk	16ee\Jk	.	.	.	.	.	.	16E\Jk	.	16e\Jk	.	.	.	16E\Jk	.	16ee\Jk	.	16ee/Jk	16ee\Jk	.	16ee\Jk	.	.	.	.	.
*	*	*	*	*	*	*	*	*v	*v	*	*	*	*	*	*	*	*	*	*	*	*	*	*	*	*	*	*	*	*	*	*	*	*	*
=13	=13	=13	=13	=13	=13	=13	=13	=13	=13	=13	=13	=13	=13	=13	=13	=13	=13	=13	=13	=13	=13	=13	=13	=13	=13	=13	=13	=13	=13	=13	=13	=13	=13
*	*	*	*	*	*	*	*	*	*	*	*	*	*	*	*	*	*	*	*	*	*	*	*^	*	*	*	*	*	*	*	*	*	*
*	*	*	*	*tremolo	*	*tremolo	*	*tremolo	*	*tremolo	*	*	*	*	*	*	*2\right	*	*	*	*	*	*	*2\right	*	*	*2\right	*	*2\right	*	*	*	*	*
!	!	!	!	!	!	!	!	!	!	!	!	!LO:DY:rj	!	!	!	!	!LO:S:s=2:note:problem:note-level slur	!	!	!	!	!	!	!	!	!	!	!	!	!	!LO:TX:t=col Fl.	!	!	!
4D/	.	4D/yy	.	32d\LLL	.	32f/LLL	.	32ff\LLL	.	32Ree/LLL	4Ra\	ff	2r	.	[4D/	.	[2f (2A\	.	8r	.	[4D\	.	[2ff/	N[>2dd\	.	[2ff/	N[>2dd\	.	[2ff\	.	4ryy	fy	4r	f
.	.	.	.	32d\	.	32f/	.	32ff\	.	32Ree/	.	.	.	.	.	.	.	.	.	.	.	.	.	.	.	.	.	.	.	.	.	.	.	.
.	.	.	.	32d\	.	32f/	.	32ff\	.	32Ree/	.	.	.	.	.	.	.	.	.	.	.	.	.	.	.	.	.	.	.	.	.	.	.	.
.	.	.	.	32d\	.	32f/	.	32ff\	.	32Ree/	.	.	.	.	.	.	.	.	.	.	.	.	.	.	.	.	.	.	.	.	.	.	.	.
.	.	.	.	32d\	.	32f/	.	32ff\	.	32Ree/	.	.	.	.	.	.	.	.	16ddLL 16d/	.	.	.	.	.	.	.	.	.	.	.	.	.	.	.
.	.	.	.	32d\	.	32f/	.	32ff\	.	32Ree/	.	.	.	.	.	.	.	.	.	.	.	.	.	.	.	.	.	.	.	.	.	.	.	.
.	.	.	.	32d\	.	32f/	.	32ff\	.	32Ree/	.	.	.	.	.	.	.	.	16ddJJ 16d/	.	.	.	.	.	.	.	.	.	.	.	.	.	.	.
.	.	.	.	32d\	.	32f/	.	32ff\	.	32Ree/	.	.	.	.	.	.	.	.	.	.	.	.	.	.	.	.	.	.	.	.	.	.	.	.
8.D/L	.	8.D/Lyy	.	32d\	.	32f/	.	32ff\	.	32Ree/	4r	.	.	.	8.D/L]	.	.	.	8ddL 8d/	.	8.D/L]	.	.	.	.	.	.	.	.	.	(y16fff\LLyy	.	(16fff\LL	.
.	.	.	.	32d\	.	32f/	.	32ff\	.	32Ree/	.	.	.	.	.	.	.	.	.	.	.	.	.	.	.	.	.	.	.	.	.	.	.	.
.	.	.	.	32d\	.	32f/	.	32ff\	.	32Ree/	.	.	.	.	.	.	.	.	.	.	.	.	.	.	.	.	.	.	.	.	16ddd\yy	.	16ddd\	.
.	.	.	.	32d\	.	32f/	.	32ff\	.	32Ree/	.	.	.	.	.	.	.	.	.	.	.	.	.	.	.	.	.	.	.	.	.	.	.	.
.	.	.	.	32d\	.	32f/	.	32ff\	.	32Ree/	.	.	.	.	.	.	.	.	16ddL 16d/	.	.	.	.	.	.	.	.	.	.	.	16aa\yy	.	16aa\	.
.	.	.	.	32d\	.	32f/	.	32ff\	.	32Ree/	.	.	.	.	.	.	.	.	.	.	.	.	.	.	.	.	.	.	.	.	.	.	.	.
16C/Jk	.	16C/Jkyy	.	32d\	.	32f/	.	32ff\	.	32Ree/	.	.	.	.	16C/Jk	.	.	.	16ddJJ 16d/	.	16C/Jk	.	.	.	.	.	.	.	.	.	16ddd\JJyy	.	16ddd\JJ	.
.	.	.	.	32d\JJJ	.	32f/JJJ	.	32ff\JJJ	.	32Ree/JJJ	.	.	.	.	.	.	.	.	.	.	.	.	.	.	.	.	.	.	.	.	.	.	.	.
*tremolo	*	*tremolo	*	*Xtremolo	*	*Xtremolo	*	*Xtremolo	*	*Xtremolo	*	*	*	*	*	*	*	*	*	*	*	*	*	*	*	*	*	*	*	*	*	*	*	*
32BB/LLL	.	32BB/LLLyy	.	8.d\L	.	8.f/L	.	8.ff\L	.	8Ree/	2r	.	8.r	.	2BB/	.	8.f]L 8.G\)	.	4dd 4d/	.	8.BB/L	.	8.ff]L 8.dd\N]	2ryy	.	8.ff]L 8.dd\N]	2ryy	.	8.ff\L]	.	8fff\)yy	.	8fff\)	.
32BB/	.	32BB/yy	.	.	.	.	.	.	.	.	.	.	.	.	.	.	.	.	.	.	.	.	.	.	.	.	.	.	.	.	.	.	.	.
32BB/	.	32BB/yy	.	.	.	.	.	.	.	.	.	.	.	.	.	.	.	.	.	.	.	.	.	.	.	.	.	.	.	.	.	.	.	.
32BB/	.	32BB/yy	.	.	.	.	.	.	.	.	.	.	.	.	.	.	.	.	.	.	.	.	.	.	.	.	.	.	.	.	.	.	.	.
32BB/	.	32BB/yy	.	.	.	.	.	.	.	8r	.	.	.	.	.	.	.	.	.	.	.	.	.	.	.	.	.	.	.	.	8ryy	.	8r	.
32BB/	.	32BB/yy	.	.	.	.	.	.	.	.	.	.	.	.	.	.	.	.	.	.	.	.	.	.	.	.	.	.	.	.	.	.	.	.
32BB/	.	32BB/yy	.	16d\K	.	16d/K	.	16dd\K	.	.	.	.	16GG/KL	.	.	.	16fK 16G\	.	.	.	16BB/K	.	16ffK 16dd\	.	.	16dd\K	.	.	16dd\K	.	.	.	.	.
32BB/	.	32BB/yy	.	.	.	.	.	.	.	.	.	.	.	.	.	.	.	.	.	.	.	.	.	.	.	.	.	.	.	.	.	.	.	.
32BB/	.	32BB/yy	.	8.d\	.	8.g/	.	8.gg\	.	4r	.	.	8.GG/	.	.	.	8.f 8.G\	.	4r	.	8.BB/	.	8.ff 8.dd\	.	.	8.gg 8.dd\	.	.	8.gg\	.	4ryy	.	4r	.
32BB/	.	32BB/yy	.	.	.	.	.	.	.	.	.	.	.	.	.	.	.	.	.	.	.	.	.	.	.	.	.	.	.	.	.	.	.	.
32BB/	.	32BB/yy	.	.	.	.	.	.	.	.	.	.	.	.	.	.	.	.	.	.	.	.	.	.	.	.	.	.	.	.	.	.	.	.
32BB/	.	32BB/yy	.	.	.	.	.	.	.	.	.	.	.	.	.	.	.	.	.	.	.	.	.	.	.	.	.	.	.	.	.	.	.	.
32BB/	.	32BB/yy	.	.	.	.	.	.	.	.	.	.	.	.	.	.	.	.	.	.	.	.	.	.	.	.	.	.	.	.	.	.	.	.
32BB/	.	32BB/yy	.	.	.	.	.	.	.	.	.	.	.	.	.	.	.	.	.	.	.	.	.	.	.	.	.	.	.	.	.	.	.	.
32BB/	.	32BB/yy	.	16d\Jk	.	16f/Jk	.	16ff\Jk	.	.	.	.	16GG/Jk	.	.	.	16fJk 16G\	.	.	.	16BB/Jk	.	16ffJk 16dd\	.	.	16ffJk 16dd\	.	.	16ff\Jk	.	.	.	.	.
32BB/JJJ	.	32BB/JJJyy	.	.	.	.	.	.	.	.	.	.	.	.	.	.	.	.	.	.	.	.	.	.	.	.	.	.	.	.	.	.	.	.
*Xtremolo	*	*Xtremolo	*	*	*	*	*	*	*	*	*	*	*	*	*	*	*	*	*	*	*	*	*	*	*	*	*	*	*	*	*	*	*	*
=14	=14	=14	=14	=14	=14	=14	=14	=14	=14	=14	=14	=14	=14	=14	=14	=14	=14	=14	=14	=14	=14	=14	=14	=14	=14	=14	=14	=14	=14	=14	=14	=14	=14	=14
!	!	!	!	!	!	!	!	!	!	!	!	!	!	!	!	!	!LO:S:s=2:note:problem:note-level slur	!	!	!	!	!	!	!	!	!	!	!	!	!	!	!	!	!
*	*	*	*	*tremolo	*	*tremolo	*	*tremolo	*	*tremolo	*	*	*	*	*	*	*	*	*	*	*	*	*	*	*	*	*	*	*	*	*	*	*	*
4C/	.	4C/yy	.	32c\LLL	.	32e/LLL	.	32ee\LLL	.	32Ree/LLL	4Ra\	.	4C/	.	[4C/	.	[2e (2G\	.	8r	.	(4C/	.	[2ee/	N[>2cc\	.	[2ee/	N[>2cc\	.	[2ee\	.	4ryy	.	4r	.
.	.	.	.	32c\	.	32e/	.	32ee\	.	32Ree/	.	.	.	.	.	.	.	.	.	.	.	.	.	.	.	.	.	.	.	.	.	.	.	.
.	.	.	.	32c\	.	32e/	.	32ee\	.	32Ree/	.	.	.	.	.	.	.	.	.	.	.	.	.	.	.	.	.	.	.	.	.	.	.	.
.	.	.	.	32c\	.	32e/	.	32ee\	.	32Ree/	.	.	.	.	.	.	.	.	.	.	.	.	.	.	.	.	.	.	.	.	.	.	.	.
.	.	.	.	32c\	.	32e/	.	32ee\	.	32Ree/	.	.	.	.	.	.	.	.	16ccLL 16c/	.	.	.	.	.	.	.	.	.	.	.	.	.	.	.
.	.	.	.	32c\	.	32e/	.	32ee\	.	32Ree/	.	.	.	.	.	.	.	.	.	.	.	.	.	.	.	.	.	.	.	.	.	.	.	.
.	.	.	.	32c\	.	32e/	.	32ee\	.	32Ree/	.	.	.	.	.	.	.	.	16ccJJ 16c/	.	.	.	.	.	.	.	.	.	.	.	.	.	.	.
.	.	.	.	32c\	.	32e/	.	32ee\	.	32Ree/	.	.	.	.	.	.	.	.	.	.	.	.	.	.	.	.	.	.	.	.	.	.	.	.
8.C/L	.	8.C/Lyy	.	32c\	.	32e/	.	32ee\	.	32Ree/	4r	.	4r	.	8.C/L]	.	.	.	8ccL 8c/	.	8.C/L	.	.	.	.	.	.	.	.	.	(y16eee\LLyy	.	(16eee\LL	.
.	.	.	.	32c\	.	32e/	.	32ee\	.	32Ree/	.	.	.	.	.	.	.	.	.	.	.	.	.	.	.	.	.	.	.	.	.	.	.	.
.	.	.	.	32c\	.	32e/	.	32ee\	.	32Ree/	.	.	.	.	.	.	.	.	.	.	.	.	.	.	.	.	.	.	.	.	16ccc\yy	.	16ccc\	.
.	.	.	.	32c\	.	32e/	.	32ee\	.	32Ree/	.	.	.	.	.	.	.	.	.	.	.	.	.	.	.	.	.	.	.	.	.	.	.	.
.	.	.	.	32c\	.	32e/	.	32ee\	.	32Ree/	.	.	.	.	.	.	.	.	16ccL 16c/	.	.	.	.	.	.	.	.	.	.	.	16gg\yy	.	16gg\	.
.	.	.	.	32c\	.	32e/	.	32ee\	.	32Ree/	.	.	.	.	.	.	.	.	.	.	.	.	.	.	.	.	.	.	.	.	.	.	.	.
16BB/Jk	.	16BB/Jkyy	.	32c\	.	32e/	.	32ee\	.	32Ree/	.	.	.	.	16BB/Jk	.	.	.	16ccJJ 16c/	.	16BB/Jk)	.	.	.	.	.	.	.	.	.	16ccc\Jyy	.	16ccc\J	.
.	.	.	.	32c\JJJ	.	32e/JJJ	.	32ee\JJJ	.	32Ree/JJJ	.	.	.	.	.	.	.	.	.	.	.	.	.	.	.	.	.	.	.	.	.	.	.	.
*tremolo	*	*tremolo	*	*Xtremolo	*	*Xtremolo	*	*Xtremolo	*	*Xtremolo	*	*	*	*	*	*	*	*	*	*	*	*	*	*	*	*	*	*	*	*	*	*	*	*
32AA/LLL	.	32AA/LLLyy	.	8.c\L	.	8.e/L	.	8.ee\L	.	8Ree/	2r	.	8.r	.	2AA/	.	8.e]L 8.c\)	.	4cc 4c/	.	8.AA/L	.	8.ee]L 8.cc\N]	2ryy	.	8.ee]L 8.cc\N]	2ryy	.	8.ee\L]	.	8eee\J)yy	.	8eee\J)	.
32AA/	.	32AA/yy	.	.	.	.	.	.	.	.	.	.	.	.	.	.	.	.	.	.	.	.	.	.	.	.	.	.	.	.	.	.	.	.
32AA/	.	32AA/yy	.	.	.	.	.	.	.	.	.	.	.	.	.	.	.	.	.	.	.	.	.	.	.	.	.	.	.	.	.	.	.	.
32AA/	.	32AA/yy	.	.	.	.	.	.	.	.	.	.	.	.	.	.	.	.	.	.	.	.	.	.	.	.	.	.	.	.	.	.	.	.
32AA/	.	32AA/yy	.	.	.	.	.	.	.	8r	.	.	.	.	.	.	.	.	.	.	.	.	.	.	.	.	.	.	.	.	8ryy	.	8r	.
32AA/	.	32AA/yy	.	.	.	.	.	.	.	.	.	.	.	.	.	.	.	.	.	.	.	.	.	.	.	.	.	.	.	.	.	.	.	.
32AA/	.	32AA/yy	.	16c\K	.	16c/K	.	16cc\K	.	.	.	.	16C/KL	.	.	.	16eK 16c\	.	.	.	16AA/K	.	16eeK 16cc\	.	.	16ccK\	.	.	16cc\K	.	.	.	.	.
32AA/	.	32AA/yy	.	.	.	.	.	.	.	.	.	.	.	.	.	.	.	.	.	.	.	.	.	.	.	.	.	.	.	.	.	.	.	.
32AA/	.	32AA/yy	.	8.c\	.	8.f/	.	8.ff\	.	4r	.	.	8.C/	.	.	.	8.e 8.c\	.	4r	.	8.AA/	.	8.ee 8.cc\	.	.	8.ee 8.cc\	.	.	8.ff\	.	4ryy	.	4r	.
32AA/	.	32AA/yy	.	.	.	.	.	.	.	.	.	.	.	.	.	.	.	.	.	.	.	.	.	.	.	.	.	.	.	.	.	.	.	.
32AA/	.	32AA/yy	.	.	.	.	.	.	.	.	.	.	.	.	.	.	.	.	.	.	.	.	.	.	.	.	.	.	.	.	.	.	.	.
32AA/	.	32AA/yy	.	.	.	.	.	.	.	.	.	.	.	.	.	.	.	.	.	.	.	.	.	.	.	.	.	.	.	.	.	.	.	.
32AA/	.	32AA/yy	.	.	.	.	.	.	.	.	.	.	.	.	.	.	.	.	.	.	.	.	.	.	.	.	.	.	.	.	.	.	.	.
32AA/	.	32AA/yy	.	.	.	.	.	.	.	.	.	.	.	.	.	.	.	.	.	.	.	.	.	.	.	.	.	.	.	.	.	.	.	.
32AA/	.	32AA/yy	.	16c\Jk	.	16e/Jk	.	16ee\Jk	.	.	.	.	16C/Jk	.	.	.	16eJk 16c\	.	.	.	16AA/Jk	.	16eeJk 16cc\	.	.	16eeJk 16cc\	.	.	16ee\Jk	.	.	.	.	.
32AA/JJJ	.	32AA/JJJyy	.	.	.	.	.	.	.	.	.	.	.	.	.	.	.	.	.	.	.	.	.	.	.	.	.	.	.	.	.	.	.	.
*Xtremolo	*	*Xtremolo	*	*	*	*	*	*	*	*	*	*	*	*	*	*	*	*	*	*	*	*	*	*	*	*	*	*	*	*	*	*	*	*
!!LO:PB:g=original
=15	=15	=15	=15	=15	=15	=15	=15	=15	=15	=15	=15	=15	=15	=15	=15	=15	=15	=15	=15	=15	=15	=15	=15	=15	=15	=15	=15	=15	=15	=15	=15	=15	=15	=15
*	*	*	*	*	*	*	*	*	*	*	*	*	*	*	*	*	*	*	*	*	*	*	*	*	*	*	*	*	*^	*	*	*	*	*
*	*	*	*	*tremolo	*	*tremolo	*	*tremolo	*	*tremolo	*	*	*	*	*	*	*	*	*	*	*	*	*	*	*	*	*	*	*	*	*	*	*	*	*
4BB/	.	4BB/yy	.	32B/LLL	.	32d/LLL	.	32dd\LLL	.	32Ree/LLL	4Ra\	.	1r	.	[4BB/	.	[2d [>2B\	.	8r	.	4BB/	.	[2dd/	N[2b\	.	2dd/	2b\	.	2dd/	2b\	.	4ryy	.	4r	.
.	.	.	.	32B/	.	32d/	.	32dd\	.	32Ree/	.	.	.	.	.	.	.	.	.	.	.	.	.	.	.	.	.	.	.	.	.	.	.	.	.
.	.	.	.	32B/	.	32d/	.	32dd\	.	32Ree/	.	.	.	.	.	.	.	.	.	.	.	.	.	.	.	.	.	.	.	.	.	.	.	.	.
.	.	.	.	32B/	.	32d/	.	32dd\	.	32Ree/	.	.	.	.	.	.	.	.	.	.	.	.	.	.	.	.	.	.	.	.	.	.	.	.	.
.	.	.	.	32B/	.	32d/	.	32dd\	.	32Ree/	.	.	.	.	.	.	.	.	16bLL 16B/	.	.	.	.	.	.	.	.	.	.	.	.	.	.	.	.
.	.	.	.	32B/	.	32d/	.	32dd\	.	32Ree/	.	.	.	.	.	.	.	.	.	.	.	.	.	.	.	.	.	.	.	.	.	.	.	.	.
.	.	.	.	32B/	.	32d/	.	32dd\	.	32Ree/	.	.	.	.	.	.	.	.	16bJJ 16B/	.	.	.	.	.	.	.	.	.	.	.	.	.	.	.	.
.	.	.	.	32B/	.	32d/	.	32dd\	.	32Ree/	.	.	.	.	.	.	.	.	.	.	.	.	.	.	.	.	.	.	.	.	.	.	.	.	.
8.B\L	.	8.B\Lyy	.	32B/	.	32d/	.	32dd\	.	32Ree/	4r	.	.	.	8.BB/L]	.	.	.	8bL 8B/	.	8.B\L	.	.	.	.	.	.	.	.	.	.	(y16ddd\LLyy	.	(16ddd\LL	.
.	.	.	.	32B/	.	32d/	.	32dd\	.	32Ree/	.	.	.	.	.	.	.	.	.	.	.	.	.	.	.	.	.	.	.	.	.	.	.	.	.
.	.	.	.	32B/	.	32d/	.	32dd\	.	32Ree/	.	.	.	.	.	.	.	.	.	.	.	.	.	.	.	.	.	.	.	.	.	16bb\yy	.	16bb\	.
.	.	.	.	32B/	.	32d/	.	32dd\	.	32Ree/	.	.	.	.	.	.	.	.	.	.	.	.	.	.	.	.	.	.	.	.	.	.	.	.	.
.	.	.	.	32B/	.	32d/	.	32dd\	.	32Ree/	.	.	.	.	.	.	.	.	16bL 16B/	.	.	.	.	.	.	.	.	.	.	.	.	16ee\yy	.	16ee\	.
.	.	.	.	32B/	.	32d/	.	32dd\	.	32Ree/	.	.	.	.	.	.	.	.	.	.	.	.	.	.	.	.	.	.	.	.	.	.	.	.	.
16A\Jk	.	16A\Jkyy	.	32B/	.	32d/	.	32dd\	.	32Ree/	.	.	.	.	16AA/Jk	.	.	.	16bJJ 16B/	.	16A\Jk	.	.	.	.	.	.	.	.	.	.	16bb\Jyy	.	16bb\J	.
.	.	.	.	32B/JJJ	.	32d/JJJ	.	32dd\JJJ	.	32Ree/JJJ	.	.	.	.	.	.	.	.	.	.	.	.	.	.	.	.	.	.	.	.	.	.	.	.	.
*tremolo	*	*tremolo	*	*Xtremoo	*	*Xtremolo	*	*Xtremolo	*	*Xtremolo	*	*	*	*	*	*	*	*	*	*	*	*	*	*	*	*	*	*	*	*	*	*	*	*	*
32G#X\LLL	.	32G#X\LLLyy	.	8.B/L	.	8.d/L	.	8.dd\L	.	8Ree/	2r	.	.	.	2GG#X/	.	8.d]L 8.B\]	.	4b 4B/	.	8.G#X\L	.	8.dd]L 8.b\N]	2ryy	.	8.ddL 8.b\	2ryy	.	8.ddL 8.b\	2ryy	.	8ddd\J)yy	.	8ddd\J)	.
32G#\	.	32G#\yy	.	.	.	.	.	.	.	.	.	.	.	.	.	.	.	.	.	.	.	.	.	.	.	.	.	.	.	.	.	.	.	.	.
32G#\	.	32G#\yy	.	.	.	.	.	.	.	.	.	.	.	.	.	.	.	.	.	.	.	.	.	.	.	.	.	.	.	.	.	.	.	.	.
32G#\	.	32G#\yy	.	.	.	.	.	.	.	.	.	.	.	.	.	.	.	.	.	.	.	.	.	.	.	.	.	.	.	.	.	.	.	.	.
32G#\	.	32G#\yy	.	.	.	.	.	.	.	8r	.	.	.	.	.	.	.	.	.	.	.	.	.	.	.	.	.	.	.	.	.	8ryy	.	8r	.
32G#\	.	32G#\yy	.	.	.	.	.	.	.	.	.	.	.	.	.	.	.	.	.	.	.	.	.	.	.	.	.	.	.	.	.	.	.	.	.
32G#\	.	32G#\yy	.	16B/K	.	16B/K	.	16b\K	.	.	.	.	.	.	.	.	16dK 16B\	.	.	.	16G#\K	.	16eeK 16b\	.	.	16bK\	.	.	16b\K	.	.	.	.	.	.
32G#\	.	32G#\yy	.	.	.	.	.	.	.	.	.	.	.	.	.	.	.	.	.	.	.	.	.	.	.	.	.	.	.	.	.	.	.	.	.
32G#\	.	32G#\yy	.	8.B/	.	8.e/	.	8.ee\	.	4r	.	.	.	.	.	.	8.d 8.B\	.	4r	.	8.G#\	.	8.ee 8.b\	.	.	8.ee 8.b\	.	.	8.ee\	.	.	4ryy	.	4r	.
32G#\	.	32G#\yy	.	.	.	.	.	.	.	.	.	.	.	.	.	.	.	.	.	.	.	.	.	.	.	.	.	.	.	.	.	.	.	.	.
32G#\	.	32G#\yy	.	.	.	.	.	.	.	.	.	.	.	.	.	.	.	.	.	.	.	.	.	.	.	.	.	.	.	.	.	.	.	.	.
32G#\	.	32G#\yy	.	.	.	.	.	.	.	.	.	.	.	.	.	.	.	.	.	.	.	.	.	.	.	.	.	.	.	.	.	.	.	.	.
32G#\	.	32G#\yy	.	.	.	.	.	.	.	.	.	.	.	.	.	.	.	.	.	.	.	.	.	.	.	.	.	.	.	.	.	.	.	.	.
32G#\	.	32G#\yy	.	.	.	.	.	.	.	.	.	.	.	.	.	.	.	.	.	.	.	.	.	.	.	.	.	.	.	.	.	.	.	.	.
32G#\	.	32G#\yy	.	16B/Jk	.	16d/Jk	.	16dd\Jk	.	.	.	.	.	.	.	.	16dJk 16B\	.	.	.	16G#\Jk	.	16eeJk 16b\	.	.	16ddJk 16b\	.	.	16dd\Jk	.	.	.	.	.	.
32G#\JJJ	.	32G#\JJJyy	.	.	.	.	.	.	.	.	.	.	.	.	.	.	.	.	.	.	.	.	.	.	.	.	.	.	.	.	.	.	.	.	.
*Xtremolo	*	*Xtremolo	*	*	*	*	*	*	*	*	*	*	*	*	*	*	*	*	*	*	*	*	*	*	*	*	*	*	*	*	*	*	*	*	*
*	*	*	*	*	*	*	*	*	*	*	*	*	*	*	*	*	*	*	*	*	*	*	*	*	*	*	*	*	*v	*v	*	*	*	*	*
=16	=16	=16	=16	=16	=16	=16	=16	=16	=16	=16	=16	=16	=16	=16	=16	=16	=16	=16	=16	=16	=16	=16	=16	=16	=16	=16	=16	=16	=16	=16	=16	=16	=16	=16
*	*	*	*	*	*	*	*	*	*	*	*	*	*	*	*	*	*^	*	*	*	*	*	*	*	*	*	*	*	*	*	*	*	*	*
!	!	!	!	!	!	!	!	!	!	!	!	!	!	!LO:DY:rj	!	!	!	!	!	!	!	!	!	!	!	!	!	!	!	!	!	!	!	!	!
4A\	.	4A\yy	.	4A/	.	4e 4c/	.	4cc\	.	2r	2ryy	.	4C/	ff	4AA/	.	4c/	4A\	.	4r	.	4A\	.	4ee/	4cc\	.	4cc 4a\	2ryy	.	4cc\	.	4ryy	.	4r	.
!	!	!	!	!	!	!	!	!	!	!	!	!	!	!	!	!	!	!	!	!	!	!LO:TX:a:t=col b	!	!	!	!	!	!	!	!	!	!	!	!	!
8.A\L	.	8.A\Lyy	.	8.a\L	.	8.aL 8.e/	.	8.cc#X\L	.	.	.	.	4r	.	8.A\L	.	8.c#XL 8.A\	4ryy	.	8.aL 8.e/	.	8.A\Lyy	.	8.eeL 8.cc#X\	4ryy	.	8.eeL 8.cc#X\	.	.	8.aa\L	.	8.ccc#X\Lyy	.	8.ccc#X\L	.
16G\Jk	.	16G\Jkyy	.	16g\Jk	.	16aJk 16e/	.	16cc#\Jk	.	.	.	.	.	.	16G\Jk	.	16c#Jk 16A\	.	.	16aJk 16e/	.	16G\Jkyy	.	16eeJk 16cc#\	.	.	16eeJk 16cc#\	.	.	16aa\Jk	.	16ccc#\Jkyy	.	16ccc#\Jk	.
4F\	.	4F\yy	.	4f\	.	4a 4d/	.	4dd\	.	4r	4ryy	.	2r	.	4F\	.	4d 4A\	2ryy	.	4a 4d/	.	4F\yy	.	4ff/	4dd\	.	4dd/	4dd\	.	4aa\	.	4ddd\yy	.	4ddd\	.
8.C#X/L	.	8.C#X/Lyy	.	8.c#X\L	.	8.aL 8.e/	.	8.eeL 8.a\	.	8.Ree/L	4Ra\	.	.	.	8.C#X/L	.	8.eL 8.A\	.	.	8.aL 8.e/	.	8.C#X/Lyy	.	8.ee\L	4ryy	.	8.eeL 8.a\	4ryy	.	8.aa\L	.	8.eee\Lyy	.	8.eee\L	.
16C#/Jk	.	16C#/Jkyy	.	16c#\Jk	.	16aJk 16e/	.	16eeJk 16a\	.	16Ree/Jk	.	.	.	.	16C#/Jk	.	16eJk 16A\	.	.	16aJk 16e/	.	16C#/Jkyy	.	16ee\Jk	.	.	16eeJk 16a\	.	.	16aa\Jk	.	16eee\Jkyy	.	16eee\Jk	.
*	*	*	*	*	*	*	*	*	*	*	*	*	*	*	*	*	*v	*v	*	*	*	*	*	*	*	*	*	*	*	*	*	*	*	*	*
=17	=17	=17	=17	=17	=17	=17	=17	=17	=17	=17	=17	=17	=17	=17	=17	=17	=17	=17	=17	=17	=17	=17	=17	=17	=17	=17	=17	=17	=17	=17	=17	=17	=17	=17
4D\	.	4D\yy	.	4d\	.	4a 4d/	.	4ff 4a 4d\	.	4Ree/	4Ra\	.	4r	.	4D/	.	4f 4A\	.	4a 4d/	.	4D\yy	.	4ff/	4dd\	.	4ff 4a\	2ryy	.	4aa\	.	4fff\yy	.	4fff\	.
8.G\L	.	8.G\Lyy	.	8.g\L	.	8.g/L	.	8.bL 8.d/	.	4r	4ryy	.	8.GG/L	.	8.G\L	.	8.dL 8.B\	.	8.g/L	.	8.G\Lyy	.	8.ddL 8.g/	4ryy	.	8.ddL 8.b\	.	.	8.gg\L	.	8.bb\Lyy	.	8.bb\L	.
16F\Jk	.	16F\Jkyy	.	16f\Jk	.	16g/Jk	.	16bJk 16d/	.	.	.	.	16GG/Jk	.	16F\Jk	.	16dJk 16B\	.	16g/Jk	.	16F\Jkyy	.	16ddJk 16g/	.	.	16ddJk 16b\	.	.	16gg\Jk	.	16bb\Jkyy	.	16bb\Jk	.
4E\	.	4E\yy	.	4e\	.	4g/	.	4cc 4e/	.	4r	4ryy	.	4C/	.	4E\	.	4e 4c\	.	4g 4c/	.	4E\yy	.	4ee/	4cc\	.	4cc/	4cc\	.	4gg\	.	4ccc\yy	.	4ccc\	.
8.BB/L	.	8.BB/Lyy	.	8.B/L	.	8.g/L	.	8.ddL 8.d/	.	8.Ree/L	4Ra\	.	8.GG/L	.	8.BB/L	.	8.dL 8.G\	.	8.gL 8.d/	.	8.BB/Lyy	.	8.ddL 8.g/	4ryy	.	8.ddL 8.g/	4ryy	.	8.gg\L	.	8.ddd\Lyy	.	8.ddd\L	.
16BB/Jk	.	16BB/Jkyy	.	16B/Jk	.	16g/Jk	.	16ddJk 16d/	.	16Ree/Jk	.	.	16GG/Jk	.	16BB/Jk	.	16dJk 16G\	.	16gJk 16d/	.	16BB/Jkyy	.	16ddJk 16g/	.	.	16ddJk 16g/	.	.	16gg\Jk	.	16ddd\Jkyy	.	16ddd\Jk	.
=18	=18	=18	=18	=18	=18	=18	=18	=18	=18	=18	=18	=18	=18	=18	=18	=18	=18	=18	=18	=18	=18	=18	=18	=18	=18	=18	=18	=18	=18	=18	=18	=18	=18	=18
4C/	.	4C/yy	.	4c/	.	4cc 4g/	.	4ee 4e/	.	4Ree/	4Ra\	.	4C/	.	4C/	.	4e 4G\	.	4g 4c/	.	4C/yy	.	4ee/	4cc\	.	4ee 4g/	2ryy	.	4gg\	.	4eee\	.	4eee\	.
8.BB/L	.	8.BB/Lyy	.	8.B/L	.	8.bL 8.g#X/	.	8.ddL 8.e/	.	4r	4ryy	.	4r	.	8.BB/L	.	8.dL 8.G#X\	.	8.g#XL 8.e/	.	8.BB/Lyy	.	8.ee#X\L	4ryy	.	8.eeL 8.g#X/	.	.	8.gg#X\L	.	8.ddd\L	.	8.ddd\L	.
16BB/Jk	.	16BB/Jkyy	.	16B/Jk	.	16bJk 16g#/	.	16ddJk 16e/	.	.	.	.	.	.	16BB/Jk	.	16dJk 16G#\	.	16g#Jk 16e/	.	16BB/Jkyy	.	16ee#\Jk	.	.	16eeJk 16g#/	.	.	16gg#\Jk	.	16ddd\Jk	.	16ddd\Jk	.
4AA/	.	4AA/yy	.	4A/	.	4a/	.	4cc 4e/	.	2r	2ryy	.	2r	.	4AA/	.	4c 4A\	.	4a 4e/	.	4AA/yy	.	4ee#\	2ryy	.	4cc/	4a\	.	4aa\	.	4ccc\	.	4ccc\	p
!	!LO:DY:rj	!	!LO:DY:rj	!	!LO:DY:rj	!	!	!	!LO:DY:rj	!	!	!	!	!	!	!	!	!	!	!	!	!LO:DY:rj	!	!	!LO:DY:rj	!	!	!	!	!LO:DY:rj	!	!	!	!
8.D/L	p	8.D/Lyy	py	8.d\L	p	8.f/L	.	8.b/L	p	.	.	.	.	.	4r	.	4r	.	4r	.	8.D\L	p	8.ffL 8.b\	.	p	4r	4ryy	.	8.ff\L	p	4r	.	8.bb\L	.
16D/Jk	.	16D/Jkyy	.	16d\Jk	.	16f/Jk	.	16b/Jk	.	.	.	.	.	.	.	.	.	.	.	.	16D\Jk	.	16ffJk 16b\	.	.	.	.	.	16ff\Jk	.	.	.	16bb\Jk	.
!!LO:PB:g=original
=19	=19	=19	=19	=19	=19	=19	=19	=19	=19	=19	=19	=19	=19	=19	=19	=19	=19	=19	=19	=19	=19	=19	=19	=19	=19	=19	=19	=19	=19	=19	=19	=19	=19	=19
4E\	.	4E\yy	.	4c\	.	4e/	.	4a/	.	1r	1r	.	1r	.	1r	.	1r	.	1r	.	4E\	.	4ee/	4cc\	.	4r	4a\	.	4ee\	.	2r	.	4aa\	.
.	.	.	.	.	.	.	.	.	.	.	.	.	.	.	.	.	.	.	.	.	.	.	.	.	.	(32qqdd#X/LLL	.	.	(32qqdd#X/LLL	.	.	.	(32qqddd#X/LLL	.
.	.	.	.	.	.	.	.	.	.	.	.	.	.	.	.	.	.	.	.	.	.	.	.	.	.	32qqee/	.	.	32qqee/	.	.	.	32qqeee/	.
.	.	.	.	.	.	.	.	.	.	.	.	.	.	.	.	.	.	.	.	.	.	.	.	.	.	32qqff/JJJ	.	.	32qqff/JJJ	.	.	.	32qqfff/JJJ	.
4r	.	4ryy	.	4r	.	4r	.	4r	.	.	.	.	.	.	.	.	.	.	.	.	4r	.	4r	4ryy	.	8.ee/L)	4r	.	8.ee\L)	.	.	.	8.eee\L)	.
.	.	.	.	.	.	.	.	.	.	.	.	.	.	.	.	.	.	.	.	.	.	.	.	.	.	16dd#X/Jk	.	.	16dd#X\Jk	.	.	.	16ddd#X\Jk	.
4r	.	4ryy	.	4r	.	4r	.	4r	.	.	.	.	.	.	.	.	.	.	.	.	4r	.	4r	4ryy	.	4ee/	4r	.	4ee\	.	4r	.	4eee\	.
!	!	!	!	!	!	!	!	!	!LO:DY:rj	!	!	!	!	!	!	!	!	!	!	!	!	!LO:DY:rj	!	!	!LO:DY:a:rj	!	!	!	!	!	!	!	!	!
4E\	.	4E\yy	.	4B/	.	4e 4d/	.	4gg#Xt\	p	.	.	.	.	.	.	.	.	.	.	.	4E\	p	4ee 4b\	4ryy	p	4g#Xt/	4d\	.	4gg#Xt\	.	4gg#Xt\	.	4gg#Xt\	.
*	*	*	*	*	*	*	*	*	*	*	*	*	*	*	*	*	*	*	*	*	*	*	*v	*v	*	*	*	*	*	*	*	*	*	*
*	*	*	*	*	*	*	*	*	*	*	*	*	*	*	*	*	*	*	*	*	*	*	*	*	*v	*v	*	*	*	*	*	*	*
=	=	=	=	=	=	=	=	=	=	=	=	=	=	=	=	=	=	=	=	=	=	=	=	=	=	=	=	=	=	=	=	=
8.A\L	f	8.A\Lyy	fy	4A/	.	4e 4c/	.	4aa\	.	4r	4r	.	4r	.	4r	.	4r	.	4r	.	8.A\L	.	4ee 4cc\	.	4a 4c/	.	4aa\	.	4aa\	.	4aa\	.
16A\Jk	.	16A\Jkyy	.	.	.	.	.	.	.	.	.	.	.	.	.	.	.	.	.	.	16A\K	f	.	.	.	.	.	f	.	.	.	f
!	!	!	!	!	!LO:DY:rj	!	!	!	!LO:DY:rj	!	!	!	!	!	!	!LO:DY:rj	!	!	!	!LO:DY:rj	!	!	!	!	!	!	!	!	!	!	!	!
8.E\L	.	8.E\Lyy	.	8.aL 8.c\	f	8.eeL 8.a\	.	8.aaL 8.a\	f	8.Ree/L	4Ra\	.	8.C/L	.	8.A\L	f	8.eL 8.c\	.	8.aL 8.c/	f	8.E\	.	8.eeL 8.cc\	.	8.eeL 8.cc\	.	8.aa\L	.	8.aa\L	.	8.aaa\L	.
16C\Jk	.	16C\Jkyy	.	16aJk 16c\	.	16eeJk 16a\	.	16aaJk 16a\	.	16Ree/Jk	.	.	16C/Jk	.	16A\Jk	.	16eJk 16c\	.	16aJk 16c/	.	16C\Jk	.	16eeJk 16cc\	.	16eeJk 16cc\	.	16aa\Jk	.	16aa\Jk	.	16aaa\Jk	.
4AA/	.	4AA/yy	.	4a 4c\	.	4ee 4a\	.	4aa 4a\	.	4Ree/	4Ra\	.	4C/	.	4A\	.	4e 4c\	.	4a 4c/	.	4AA/	.	4ee 4cc\	.	4ee 4cc\	.	4aa\	.	4aa\	.	4aaa\	.
*	*	*	*	*	*	*	*	*	*	*v	*v	*	*	*	*	*	*	*	*	*	*	*	*	*	*	*	*	*	*	*	*	*
=20:|!|:	=20:|!|:	=20:|!|:	=20:|!|:	=20:|!|:	=20:|!|:	=20:|!|:	=20:|!|:	=20:|!|:	=20:|!|:	=20:|!|:	=20:|!|:	=20:|!|:	=20:|!|:	=20:|!|:	=20:|!|:	=20:|!|:	=20:|!|:	=20:|!|:	=20:|!|:	=20:|!|:	=20:|!|:	=20:|!|:	=20:|!|:	=20:|!|:	=20:|!|:	=20:|!|:	=20:|!|:	=20:|!|:	=20:|!|:	=20:|!|:	=20:|!|:
!!!OMD: Trio.
*>C	*>C	*>C	*>C	*>C	*>C	*>C	*>C	*>C	*>C	*>C	*>C	*>C	*>C	*>C	*>C	*>C	*>C	*>C	*>C	*>C	*>C	*>C	*>C	*>C	*>C	*>C	*>C	*>C	*>C	*>C	*>C
*k[f#c#g#]	*	*k[f#c#g#]	*	*k[f#c#g#]	*	*k[f#c#g#]	*	*k[f#c#g#]	*	*k[]	*	*k[]	*	*k[f#c#g#]	*	*k[f#c#g#]	*	*k[f#c#g#]	*	*k[f#c#g#]	*	*k[]	*	*k[f#c#g#]	*	*k[f#c#g#]	*	*k[f#c#g#]	*	*k[f#c#g#]	*
*	*	*	*	*	*	*	*	*	*	*^	*	*	*	*	*	*	*	*	*	*	*	*	*	*	*	*	*	*	*	*	*
!	!	!	!	!	!	!	!	!	!	!	!	!	!LO:TX:a:t=Timpani in D.A.	!	!	!	!	!	!	!	!	!	!	!	!	!	!	!	!	!	!	!
4r	.	4ryy	.	4r	.	4r	.	4r	.	4r	4ryy	.	4r	.	4r	.	4r	.	4r	.	4r	.	4r	.	8.e/L	.	8.ee\L	.	4r	.	8.ee\L|	.
.	.	.	.	.	.	.	.	.	.	.	.	.	.	.	.	.	.	.	.	.	.	.	.	.	16e/Jk	.	16ee\Jk	.	.	.	16ee\Jk|	.
=21	=21	=21	=21	=21	=21	=21	=21	=21	=21	=21	=21	=21	=21	=21	=21	=21	=21	=21	=21	=21	=21	=21	=21	=21	=21	=21	=21	=21	=21	=21	=21	=21
*	*	*	*	*	*	*	*	*	*	*	*	*	*	*	*	*	*	*	*	*	*	*	*^	*	*^	*	*	*	*	*	*	*
*	*	*	*	*	*	*	*	*	*	*	*	*	*	*	*	*	*	*	*	*	*	*	*	*	*	*	*	*	*	*	*	*	*2\right	*
!	!	!	!	!	!	!	!	!	!	!	!	!	!	!	!	!	!	!	!	!	!	!	!	!	!LO:DY:rj	!	!	!	!LO:TX:b:t=dolce	!	!	!	!LO:TX:b:t=dolce	!
1r	.	1ryy	.	1r	.	1r	.	1r	.	8r	1r	.	1r	.	1r	.	1r	.	1r	.	8.AA/L	.	2ee/	2ee\	p	2cc#/	2a\	.	2aa\	.	1r	.	2ccc#\	.
!	!	!	!	!	!	!	!	!	!	!	!	!LO:DY:a:rj	!	!	!	!	!	!	!	!	!	!	!	!	!	!	!	!	!	!	!	!	!	!
.	.	.	.	.	.	.	.	.	.	16Ree/LL	.	p	.	.	.	.	.	.	.	.	.	.	.	.	.	.	.	.	.	.	.	.	.	.
.	.	.	.	.	.	.	.	.	.	16Ree/JJ	.	.	.	.	.	.	.	.	.	.	16C#/K	.	.	.	.	.	.	.	.	.	.	.	.	.
.	.	.	.	.	.	.	.	.	.	8Ree/L	.	.	.	.	.	.	.	.	.	.	8.E/	.	.	.	.	.	.	.	.	.	.	.	.	.
.	.	.	.	.	.	.	.	.	.	16Ree/L	.	.	.	.	.	.	.	.	.	.	.	.	.	.	.	.	.	.	.	.	.	.	.	.
.	.	.	.	.	.	.	.	.	.	16Ree/JJ	.	.	.	.	.	.	.	.	.	.	16A/Jk	.	.	.	.	.	.	.	.	.	.	.	.	.
.	.	.	.	.	.	.	.	.	.	4Ree/	.	.	.	.	.	.	.	.	.	.	8.EE/L	.	2ryy	8.ee\L	.	8.bL 8.g#/	2ryy	.	8.gg#\L	.	.	.	8.bb\L	.
.	.	.	.	.	.	.	.	.	.	.	.	.	.	.	.	.	.	.	.	.	16E/K	.	.	16ee\K	.	16cc#K 16a/	.	.	16aa\K	.	.	.	16ccc#\K	.
.	.	.	.	.	.	.	.	.	.	4r	.	.	.	.	.	.	.	.	.	.	8.EE/	.	.	8.ee\	.	8.dd 8.b/	.	.	8.bb\	.	.	.	8.ddd\	.
.	.	.	.	.	.	.	.	.	.	.	.	.	.	.	.	.	.	.	.	.	16E/Jk	.	.	16ee\Jk	.	16eeJk 16g#/	.	.	16gg#\Jk	.	.	.	16eee\Jk	.
*	*	*	*	*	*	*	*	*	*	*	*	*	*	*	*	*	*	*	*	*	*	*	*	*	*	*v	*v	*	*	*	*	*	*	*
!!LO:PB:g=original
=22	=22	=22	=22	=22	=22	=22	=22	=22	=22	=22	=22	=22	=22	=22	=22	=22	=22	=22	=22	=22	=22	=22	=22	=22	=22	=22	=22	=22	=22	=22	=22	=22	=22
1r	.	1ryy	.	1r	.	1r	.	1r	.	8r	1r	.	1r	.	1r	.	1r	.	1r	.	8.FF#/L	.	[2cc#X/	[2cc#X\	.	2a 2f#/	.	2ff#\	.	1ryy	.	2aa\	.
.	.	.	.	.	.	.	.	.	.	16Ree/LL	.	.	.	.	.	.	.	.	.	.	.	.	.	.	.	.	.	.	.	.	.	.	.
.	.	.	.	.	.	.	.	.	.	16Ree/JJ	.	.	.	.	.	.	.	.	.	.	16AA/K	.	.	.	.	.	.	.	.	.	.	.	.
.	.	.	.	.	.	.	.	.	.	8Ree/L	.	.	.	.	.	.	.	.	.	.	8.C#/	.	.	.	.	.	.	.	.	.	.	.	.
.	.	.	.	.	.	.	.	.	.	16Ree/L	.	.	.	.	.	.	.	.	.	.	.	.	.	.	.	.	.	.	.	.	.	.	.
.	.	.	.	.	.	.	.	.	.	16Ree/JJ	.	.	.	.	.	.	.	.	.	.	16F#/Jk	.	.	.	.	.	.	.	.	.	.	.	.
.	.	.	.	.	.	.	.	.	.	4Ree/	.	.	.	.	.	.	.	.	.	.	8.CC#/L	.	4cc#/]	8.cc#\L]	.	8.g#L 8.e#X/	.	8.ee#X\L	.	.	.	8.gg#\L	.
.	.	.	.	.	.	.	.	.	.	.	.	.	.	.	.	.	.	.	.	.	16C#/K	.	.	16cc#\K	.	16aK 16f#/	.	16ff#\K	.	.	.	16aa\K	.
.	.	.	.	.	.	.	.	.	.	4r	.	.	.	.	.	.	.	.	.	.	8.CC#/	.	4ryy	8.cc#\	.	8.b 8.g#/	.	8.gg#\	.	.	.	8.bb\	.
.	.	.	.	.	.	.	.	.	.	.	.	.	.	.	.	.	.	.	.	.	16C#/Jk	.	.	16cc#\Jk	.	16cc#Jk 16e#/	.	16ee#\Jk	.	.	.	16ccc#\Jk	.
*	*	*	*	*	*	*	*	*	*	*v	*v	*	*	*	*	*	*	*	*	*	*	*	*	*	*	*	*	*	*	*	*	*	*
=23	=23	=23	=23	=23	=23	=23	=23	=23	=23	=23	=23	=23	=23	=23	=23	=23	=23	=23	=23	=23	=23	=23	=23	=23	=23	=23	=23	=23	=23	=23	=23	=23
*	*	*	*	*	*	*	*	*	*	*	*	*	*	*	*	*	*	*	*	*	*	*	*	*	*^	*	*	*	*	*	*	*
2r	.	2ryy	.	2r	.	2r	.	2r	.	1r	.	1r	.	1r	.	1r	.	1r	.	(4F#\	.	4cc#X/	4cc#\	.	4a 4f#/	2ryy	.	4ff#\	.	4ryy	.	4aa\	.
.	.	.	.	.	.	.	.	.	.	.	.	.	.	.	.	.	.	.	.	8.E\L)	.	4r	4ryy	.	(8.bTL 8.g#/	.	.	(8.gg#t\L	.	(8.bbT\L	.	(8.bbT\L	.
.	.	.	.	.	.	.	.	.	.	.	.	.	.	.	.	.	.	.	.	16E\Jk	.	.	.	.	32aLL 32f#/	.	.	32ff#\LL	.	32aa\LL	.	32aa\LL	.
.	.	.	.	.	.	.	.	.	.	.	.	.	.	.	.	.	.	.	.	.	.	.	.	.	32bJJJ 32g#/)	.	.	32gg#\JJJ	.	32bb\JJJ	.	32bb\JJJ	.
4r	.	4ryy	.	4r	.	4r	.	4r	.	.	.	.	.	.	.	.	.	.	.	4AA/	.	2r	2ryy	.	4cc#/	4a\	.	4aa\)	.	4ccc#\)	.	4ccc#\)	.
!	!LO:DY:rj	!	!LO:DY:rj	!	!	!	!LO:DY:rj	!	!LO:DY:rj	!	!	!	!	!	!	!	!	!	!	!	!	!	!	!	!	!	!	!	!	!	!	!	!
!	!LO:HP:a	!	!LO:HP:a	!	!	!	!	!	!	!	!	!	!	!	!	!	!	!	!	!	!	!	!	!	!	!	!	!	!	!	!	!	!
4C#/	p <	4C#/yy	py <	4c#\	<	4a/	p <	[4ee\	p <	.	.	.	.	.	.	.	.	.	.	4C#/	.	.	.	.	[4ee/	4a\	.	4aa\	.	4r	.	([4eee\	.
*	*	*	*	*	*	*	*	*	*	*	*	*	*	*	*	*	*	*	*	*	*	*v	*v	*	*	*	*	*	*	*	*	*	*
=24	=24	=24	=24	=24	=24	=24	=24	=24	=24	=24	=24	=24	=24	=24	=24	=24	=24	=24	=24	=24	=24	=24	=24	=24	=24	=24	=24	=24	=24	=24	=24	=24
[4D\	[	[y4D\yy	[	[4d\	[	2a 2f#/	[	(4ee\]	[	1r	.	1r	.	1r	.	1r	.	1r	.	[4D\	.	1r	.	4ee/]	2f#\	.	(2aa\	.	2r	.	4eee\]	.
8.D\L]	.	8.D\L]yy	.	8.d\L]	.	.	.	8.dd\L)	.	.	.	.	.	.	.	.	.	.	.	8.D\L]	.	.	.	8.dd/L	.	.	.	.	.	.	8ddd\L)	.
.	.	.	.	.	.	.	.	.	.	.	.	.	.	.	.	.	.	.	.	.	.	.	.	.	.	.	.	.	.	.	8ccc#\J|	.
16D#X\Jk	.	16D#X\Jkyy	.	16d#X\Jk	.	.	.	16cc#\Jk|	.	.	.	.	.	.	.	.	.	.	.	16D#X\Jk	.	.	.	16cc#/Jk	.	.	.	.	.	.	.	.
4E\	f	4E\yy	fy	4e\	f	4g#/	.	4b\|	f	.	.	.	.	.	.	.	.	.	.	4E\	.	.	.	4b/	4g#\	.	4gg#\)	.	4r	.	4bb'\	.
!	!	!	!	!	!	!	!	!	!	!	!	!	!	!	!	!	!	!	!	!	!	!	!	!	!	!	!	!	!	!	!	!LO:DY:rj
(16E\LL	.	(y16E\LLyy	.	(16E/LL	.	(16e/LL	.	(16e/LL	.	.	.	.	.	.	.	.	.	.	.	(16E\LL	.	.	.	(16e/LL	4ryy	.	4r	.	(16ee\LL	.	(16ee\LL	f
16G#\	.	16G#\yy	.	16G#/	.	16g#/	.	16g#/	.	.	.	.	.	.	.	.	.	.	.	16G#\	.	.	.	16g#/	.	.	.	.	16gg#\	.	16gg#\	.
16B\	.	16B\yy	.	16B/	.	16b/	.	16b/	.	.	.	.	.	.	.	.	.	.	.	16B\	.	.	.	16b/	.	.	.	.	16bb\	.	16bb\	.
16e\JJ)	.	16e\JJ)yy	.	16e/JJ)	.	16ee/JJ)	.	16ee/JJ)	.	.	.	.	.	.	.	.	.	.	f	16e\JJ)	.	.	.	16ee/JJ)	.	.	.	.	16eee\JJ	.	16eee\JJ	.
=25	=25	=25	=25	=25	=25	=25	=25	=25	=25	=25	=25	=25	=25	=25	=25	=25	=25	=25	=25	=25	=25	=25	=25	=25	=25	=25	=25	=25	=25	=25	=25	=25
*	*	*	*	*	*	*	*	*	*	*^	*	*	*	*	*	*	*	*^	*	*	*	*	*	*	*	*	*	*	*	*	*	*
!	!	!	!	!	!	!	!	!	!	!	!	!	!	!LO:DY:rj	!	!	!	!LO:DY:rj	!	!	!	!	!	!	!	!	!	!	!	!	!	!	!	!
4A\	.	4A\yy	.	4e 4A/	.	4a/	.	4cc#\	.	4Ree/	4Ra\	.	4AA/	f	4A\	.	4e 4c#\	f	4cc#/	4a\	.	4A\	.	4ee 4cc#X\	.	4cc#/	4a\	.	4aa\	.	4ccc#\)	.	4ccc#\)	.
8.A\L	.	8.A\Lyy	.	8.eL 8.A/	.	8.a/L	.	8.cc#\L	.	8.Ree/L	4r	.	8.AA/L	.	8.A\L	.	8.eL 8.c#\	.	8.cc#/L	8.a\L	.	8.A\L	.	8.eeL 8.cc#\	.	8.cc#/L	8.a\L	.	8.aa\L	.	8.ccc#\L	.	8.ccc#\L	.
16A\Jk	.	16A\Jkyy	.	16eJk 16A/	.	16a/Jk	.	16cc#\Jk	.	16Ree/Jk	.	.	16AA/Jk	.	16A\Jk	.	16eJk 16c#\	.	16cc#/Jk	16a\Jk	.	16A\Jk	.	16eeJk 16cc#\	.	16cc#/Jk	16a\Jk	.	16aa\Jk	.	16ccc#\Jk	.	16ccc#\Jk	.
*	*	*	*	*	*	*	*	*	*	*tremolo	*	*	*	*	*2\right	*	*	*	*	*2\right	*	*2\right	*	*	*	*	*	*	*	*	*	*	*	*
4F#\	.	4F#\yy	.	2B/	.	2a/	.	2dd#Xt\	.	32Ree/LLL	4Ra\	.	2AATT/	.	2F#\	.	2d#X 2A\	.	2b/	2a\	.	2F#\	.	2ff#X 2b\	.	(>2dd#Xt/	2a\	.	2dd#Xt\	.	(>2ddd#Xt\	.	2ddd#Xt\	.
.	.	.	.	.	.	.	.	.	.	32Ree/	.	.	.	.	.	.	.	.	.	.	.	.	.	.	.	.	.	.	.	.	.	.	.	.
.	.	.	.	.	.	.	.	.	.	32Ree/	.	.	.	.	.	.	.	.	.	.	.	.	.	.	.	.	.	.	.	.	.	.	.	.
.	.	.	.	.	.	.	.	.	.	32Ree/	.	.	.	.	.	.	.	.	.	.	.	.	.	.	.	.	.	.	.	.	.	.	.	.
.	.	.	.	.	.	.	.	.	.	32Ree/	.	.	.	.	.	.	.	.	.	.	.	.	.	.	.	.	.	.	.	.	.	.	.	.
.	.	.	.	.	.	.	.	.	.	32Ree/	.	.	.	.	.	.	.	.	.	.	.	.	.	.	.	.	.	.	.	.	.	.	.	.
.	.	.	.	.	.	.	.	.	.	32Ree/	.	.	.	.	.	.	.	.	.	.	.	.	.	.	.	.	.	.	.	.	.	.	.	.
.	.	.	.	.	.	.	.	.	.	32Ree/	.	.	.	.	.	.	.	.	.	.	.	.	.	.	.	.	.	.	.	.	.	.	.	.
4F#\	.	4F#\yy	.	.	.	.	.	.	.	32Ree/	4r	.	.	.	.	.	.	.	.	.	.	.	.	.	.	.	.	.	.	.	.	.	.	.
.	.	.	.	.	.	.	.	.	.	32Ree/	.	.	.	.	.	.	.	.	.	.	.	.	.	.	.	.	.	.	.	.	.	.	.	.
.	.	.	.	.	.	.	.	.	.	32Ree/	.	.	.	.	.	.	.	.	.	.	.	.	.	.	.	.	.	.	.	.	.	.	.	.
.	.	.	.	.	.	.	.	.	.	32Ree/	.	.	.	.	.	.	.	.	.	.	.	.	.	.	.	.	.	.	.	.	.	.	.	.
.	.	.	.	.	.	.	.	.	.	32Ree/	.	.	.	.	.	.	.	.	.	.	.	.	.	.	.	.	.	.	.	.	.	.	.	.
.	.	.	.	.	.	.	.	.	.	32Ree/	.	.	.	.	.	.	.	.	.	.	.	.	.	.	.	.	.	.	.	.	.	.	.	.
.	.	.	.	.	.	.	.	.	.	32Ree/	.	.	.	.	.	.	.	.	.	.	.	.	.	.	.	.	.	.	.	.	.	.	.	.
.	.	.	.	.	.	.	.	.	.	32Ree/JJJ	.	.	.	.	.	.	.	.	.	.	.	.	.	.	.	.	.	.	.	.	.	.	.	.
*	*	*	*	*	*	*	*	*	*	*Xtremolo	*	*	*	*	*	*	*	*	*	*	*	*	*	*	*	*	*	*	*	*	*	*	*	*
.	.	.	.	.	.	.	.	(32qqcc#/LLL	.	.	.	.	.	.	.	.	.	.	.	.	.	.	.	.	.	32qqcc#/LLL	.	.	(32qqcc#/LLL	.	32qqccc#/LLL	.	(32qqccc#/LLL	.
.	.	.	.	.	.	.	.	32qqdd#/JJJ)	.	.	.	.	.	.	.	.	.	.	.	.	.	.	.	.	.	32qqdd#/JJJ)	.	.	32qqdd#/JJJ)	.	32qqddd#/JJJ)	.	32qqddd#/JJJ)	.
!!LO:PB:g=original
=26	=26	=26	=26	=26	=26	=26	=26	=26	=26	=26	=26	=26	=26	=26	=26	=26	=26	=26	=26	=26	=26	=26	=26	=26	=26	=26	=26	=26	=26	=26	=26	=26	=26	=26
*	*	*	*	*	*	*	*	*	*	*	*	*	*	*	*	*	*	*	*	*	*	*	*	*^	*	*	*	*	*	*	*	*	*	*
4E\	.	4E\yy	.	4e 4B\	.	4g#/	.	([4ff#\	.	4Ree/	4Ra\	.	1r	.	4E\	.	4e 4G#\	.	4b/	4g#\	.	4E\	.	4ee/	4b\	.	([4ff#/	4g#\	.	(<[>4ff#/	.	1r	.	([4fff#\	.
!	!	!	!	!	!	!	!LO:DY:rj	!	!LO:DY:rj	!	!	!	!	!	!	!	!	!	!	!	!	!	!LO:DY:rj	!	!	!LO:DY:rj	!	!	!LO:DY:rj	!	!	!	!	!	!
4r	p	4ryy	py	4e\	.	4g# 4B/	p	16ff#\LL]	p	4r	4ryy	.	.	.	4r	.	4r	.	4r	4ryy	.	4E\	p	4ee/	4b\	p	16ff#/LL]	4g#\	p	16ff#/LL]	.	.	.	16fff#\LL]	.
.	.	.	.	.	.	.	.	16ee\	.	.	.	.	.	.	.	.	.	.	.	.	.	.	.	.	.	.	16ee/	.	.	16ee/	.	.	.	16eee\	.
.	.	.	.	.	.	.	.	16dd#X\	.	.	.	.	.	.	.	.	.	.	.	.	.	.	.	.	.	.	16dd#X/	.	.	16dd#X/)	.	.	.	16ddd#X\	.
.	.	.	.	.	.	.	.	16cc#\JJ)	.	.	.	.	.	.	.	.	.	.	.	.	.	.	.	.	.	.	16cc#/JJ)	.	.	16cc#/JJ	.	.	.	16ccc#\JJ)	.
4A\	.	4A\yy	.	4r	.	4r	.	([4dd#\	.	2r	2ryy	.	.	.	2r	.	2r	.	2r	2ryy	.	4r	.	4r	2ryy	.	(<[<4dd#/	4r	.	([4dd#/	.	.	.	([4ddd#\	.
4r	.	4ryy	.	4f#\	.	4a 4c#/	.	16dd#/LL]	.	.	.	.	.	.	.	.	.	.	.	.	.	4A\	.	4ff#X 4cc#X\	.	.	16dd#/LL]	4a\	.	16dd#/LL]	.	.	.	16ddd#\LL]	.
.	.	.	.	.	.	.	.	16cc#/	.	.	.	.	.	.	.	.	.	.	.	.	.	.	.	.	.	.	16cc#/	.	.	16cc#/	.	.	.	16ccc#\	.
.	.	.	.	.	.	.	.	16a/	.	.	.	.	.	.	.	.	.	.	.	.	.	.	.	.	.	.	16a/)	.	.	16a/	.	.	.	16aa\	.
.	.	.	.	.	.	.	.	16f#/JJ)	.	.	.	.	.	.	.	.	.	.	.	.	.	.	.	.	.	.	16f#/JJ	.	.	16f#/JJ)	.	.	.	16ff#\JJ)	.
*	*	*	*	*	*	*	*	*	*	*v	*v	*	*	*	*	*	*	*	*v	*v	*	*	*	*v	*v	*	*	*	*	*	*	*	*	*	*
=27	=27	=27	=27	=27	=27	=27	=27	=27	=27	=27	=27	=27	=27	=27	=27	=27	=27	=27	=27	=27	=27	=27	=27	=27	=27	=27	=27	=27	=27	=27	=27	=27
*	*	*	*	*^	*	*	*	*	*	*	*	*	*	*	*	*	*	*	*	*	*	*	*	*	*	*	*	*	*	*	*	*
4B\	.	4B\yy	.	4r	2ryy	.	4r	.	8cc#\	.	1r	.	1r	.	1r	.	1r	.	1r	.	4r	.	4r	.	8cc#/	4r	.	8cc#\	.	1r	.	8ccc#\|	.
.	.	.	.	.	.	.	.	.	8r	.	.	.	.	.	.	.	.	.	.	.	.	.	.	.	8r	.	.	8r	.	.	.	8r	.
4r	.	4ryy	.	4e\	.	.	4g# 4B/	.	4b\	.	.	.	.	.	.	.	.	.	.	.	4B\	.	4ee 4b\	.	4b/	4g#\	.	4b\	.	.	.	4bb^<\|	.
4BB/	.	4BB/yy	.	4r	4ryy	.	4r	.	(16a#X\LL	.	.	.	.	.	.	.	.	.	.	.	4r	.	4r	.	(16a#X/LL	4r	.	(16a#X\LL	.	.	.	(16aa#X\LL	.
.	.	.	.	.	.	.	.	.	16b\	.	.	.	.	.	.	.	.	.	.	.	.	.	.	.	16b/	.	.	16b\	.	.	.	16bb\	.
.	.	.	.	.	.	.	.	.	16ee\	.	.	.	.	.	.	.	.	.	.	.	.	.	.	.	16ee/	.	.	16ee\	.	.	.	16eee\)	.
.	.	.	.	.	.	.	.	.	16g#\JJ)	.	.	.	.	.	.	.	.	.	.	.	.	.	.	.	16g#/JJ)	.	.	16g#\JJ)	.	.	.	16gg#\JJ	.
4r	.	4ryy	.	4f#/	4d#X\	.	4a 4B/	.	(16cc#/LL	.	.	.	.	.	.	.	.	.	.	.	4BB/	.	4ff#X 4a\	.	(16cc#/LL	4d#X\	.	(16cc#/LL	.	.	.	(16ccc#\LL	.
.	.	.	.	.	.	.	.	.	16b/	.	.	.	.	.	.	.	.	.	.	.	.	.	.	.	16b/	.	.	16b/	.	.	.	16bb\	.
.	.	.	.	.	.	.	.	.	16a#/	.	.	.	.	.	.	.	.	.	.	.	.	.	.	.	16a#/	.	.	16a#/	.	.	.	16aa#\	.
.	.	.	.	.	.	.	.	.	16f#/JJ)	.	.	.	.	.	.	.	.	.	.	.	.	.	.	.	16f#/JJ)	.	.	16f#/JJ)	.	.	.	16ff#\JJ)	.
*	*	*	*	*v	*v	*	*	*	*	*	*	*	*	*	*	*	*	*	*	*	*	*	*	*	*	*	*	*	*	*	*	*	*
=	=	=	=	=	=	=	=	=	=	=	=	=	=	=	=	=	=	=	=	=	=	=	=	=	=	=	=	=	=	=	=	=
8E\L	.	8E\Lyy	.	8e'\L	.	8g#L 8B/	.	8e/L	.	2r	.	2r	.	2r	.	2r	.	2r	.	4E\	.	4ee 4g#X\	.	4e/	4e\	.	4e/	.	8r	.	8ee'\L	.
(16G#\L	.	(y16G#\Lyy	.	(16g#\L	.	(16g#/L	.	(16g#/L	.	.	.	.	.	.	.	.	.	.	.	.	.	.	.	.	.	.	.	.	(16gg#\LL	.	(16gg#\L	.
16A\JJ	.	16A\JJyy	.	16a\JJ	.	16a/JJ	.	16a/JJ	.	.	.	.	.	.	.	.	.	.	.	.	.	.	.	.	.	.	.	.	16aa\JJ	.	16aa\JJ	.
8B\L)	.	8B\L)yy	.	8b\L)	.	8b/L)	.	8b/L)	.	.	.	.	.	.	.	.	.	.	.	4r	.	4r	.	4r	4ryy	.	4r	.	8bb\L)	.	8bb\L)	.
8G#'\J	.	8G#'\Jyy	.	8g#\J	.	8g#'/J	.	8g#/J	.	.	.	.	.	.	.	.	.	.	.	.	.	.	.	.	.	.	.	.	8gg#\J	.	8gg#'\J	.
4E\	.	4E\yy	.	4e\	.	4e/	.	4e/	.	4r	.	4r	.	4r	.	4r	.	4r	.	4r	.	4r	.	4r	4ryy	.	4r	.	4ee\	.	4ee'\	.
*	*	*	*	*	*	*	*	*	*	*	*	*	*	*	*	*	*	*	*	*	*	*	*	*v	*v	*	*	*	*	*	*	*
=28:|!|:	=28:|!|:	=28:|!|:	=28:|!|:	=28:|!|:	=28:|!|:	=28:|!|:	=28:|!|:	=28:|!|:	=28:|!|:	=28:|!|:	=28:|!|:	=28:|!|:	=28:|!|:	=28:|!|:	=28:|!|:	=28:|!|:	=28:|!|:	=28:|!|:	=28:|!|:	=28:|!|:	=28:|!|:	=28:|!|:	=28:|!|:	=28:|!|:	=28:|!|:	=28:|!|:	=28:|!|:	=28:|!|:	=28:|!|:	=28:|!|:	=28:|!|:
*>D	*>D	*>D	*>D	*>D	*>D	*>D	*>D	*>D	*>D	*>D	*>D	*>D	*>D	*>D	*>D	*>D	*>D	*>D	*>D	*>D	*>D	*>D	*>D	*>D	*>D	*>D	*>D	*>D	*>D	*>D	*>D
!	!LO:DY:rj	!	!LO:DY:rj	!	!	!	!LO:DY:rj	!	!LO:DY:rj	!	!	!	!	!	!	!	!LO:DY:rj	!	!LO:DY:rj	!	!LO:DY:rj	!	!LO:DY:a:rj	!:t=P:problem:pauza dopisana ołówkiem	!	!LO:TX:a:t=P:problem:pauza dopisana ołówkiem	!	!	!	!	!
8.E\L	ff	8.E\Lyy	ffy	8.e\L	.	8.e/L	ff	8.ee/L	ff	4r	.	4r	.	8.E\L	.	8.e\L	ff	8.eeL 8.e/	ff	8.E\L	ff	8.eeL 8.e/	ff	4r	.	4r	.	4r	.	4r	.
16E\Jk	.	16E\Jkyy	.	16e\Jk	.	16e/Jk	.	16ee/Jk	.	.	.	.	.	16E\Jk	.	16e\Jk	.	16eeJk 16e/	.	16E\Jk	.	16eeJk 16e/	.	.	.	.	.	.	.	.	.
!!LO:PB:g=original
=29	=29	=29	=29	=29	=29	=29	=29	=29	=29	=29	=29	=29	=29	=29	=29	=29	=29	=29	=29	=29	=29	=29	=29	=29	=29	=29	=29	=29	=29	=29	=29
*	*	*	*	*	*	*	*	*	*	*^	*	*	*	*	*	*	*	*	*	*	*	*	*	*	*	*	*	*	*	*	*
4E#X\	.	4E#X\yy	.	4e#X\	.	4e#X/	.	4ee#X\	.	4Ree/	4Ra\	.	1r	.	4E#X\	.	4e#X\	.	4ee#X 4e#X/	.	4E#X\	.	4ee#X 4e#X/	.	4r	.	4r	.	4r	.	4r	.
!	!	!	!	!	!	!	!	!	!	!	!	!	!	!	!	!	!	!	!	!	!	!	!	!	!	!	!	!LO:DY:rj	!	!	!	!
4r	.	4ryy	.	4r	.	4r	.	4r	.	4r	4r	.	.	.	4r	.	4r	.	4r	.	4r	.	4r	.	4.b 4.g#/	.	4.dd\	p	(8.gg#\L	.	(8.gg#\L	.
.	.	.	.	.	.	.	.	.	.	.	.	.	.	.	.	.	.	.	.	.	.	.	.	.	.	.	.	.	32aa\LL	.	32aa\LL	.
.	.	.	.	.	.	.	.	.	.	.	.	.	.	.	.	.	.	.	.	.	.	.	.	.	.	.	.	.	32bb\JJJ)	.	32bb\JJJ)	.
4r	.	4ryy	.	4r	.	4r	.	4r	.	2ryy	2r	.	.	.	4r	.	4r	.	4r	.	4r	.	4r	.	.	.	.	.	8dd\	.	8dd\	.
.	.	.	.	.	.	.	.	.	.	.	.	.	.	.	.	.	.	.	.	.	.	.	.	.	8r	.	8r	.	8r	.	8r	.
8.E#\L	.	8.E#\Lyy	.	8.e#\L	.	8.e#/L	.	8.ee#\L	.	.	.	.	.	.	8.E#\L	.	8.e#\L	.	8.ee#L 8.e#/	.	8.E#\L	.	8.ee#L 8.e#/	.	4r	.	4r	.	4r	.	4r	.
16E#\Jk	.	16E#\Jkyy	.	16e#\Jk	.	16e#/Jk	.	16ee#\Jk	.	.	.	.	.	.	16E#\Jk	.	16e#\Jk	.	16ee#Jk 16e#/	.	16E#\Jk	.	16ee#Jk 16e#/	.	.	.	.	.	.	.	.	.
=30	=30	=30	=30	=30	=30	=30	=30	=30	=30	=30	=30	=30	=30	=30	=30	=30	=30	=30	=30	=30	=30	=30	=30	=30	=30	=30	=30	=30	=30	=30	=30	=30
4F#\	.	4F#\yy	.	4f#\	.	4f#/	.	4ff#\	.	4Ree/	4Ra\	.	1r	.	4F#\	.	4f#\	.	4ff# 4f#/	.	4F#\	.	4ff#X 4f#X/	.	4r	.	4r	.	4r	.	4r	.
4r	.	4ryy	.	4r	.	4r	.	4r	.	4r	4ryy	.	.	.	4r	.	4r	.	4r	.	4r	.	4r	.	4.ccn 4.a/	.	4.dd#X\	.	(8.aa\L	.	(8.aa\L	.
.	.	.	.	.	.	.	.	.	.	.	.	.	.	.	.	.	.	.	.	.	.	.	.	.	.	.	.	.	32bb\LL	.	32bb\LL	.
.	.	.	.	.	.	.	.	.	.	.	.	.	.	.	.	.	.	.	.	.	.	.	.	.	.	.	.	.	32cccn\JJJ	.	32cccn\JJJ)	.
4r	.	4ryy	.	4r	.	4r	.	4r	.	2r	2ryy	.	.	.	4r	.	4r	.	4r	.	4r	.	4r	.	.	.	.	.	8dd#X\)	.	8dd#X\	.
.	.	.	.	.	.	.	.	.	.	.	.	.	.	.	.	.	.	.	.	.	.	.	.	.	8r	.	8r	.	8r	.	8r	.
8.F#\L	.	8.F#\Lyy	.	8.f#\L	.	8.f#/L	.	8.ff#\L	.	.	.	.	.	.	8.F#\L	.	8.f#\L	.	8.ff#L 8.f#/	.	8.F#\L	.	8.ff#L 8.f#/	.	4r	.	4r	.	4r	.	4r	.
16F#\Jk	.	16F#\Jkyy	.	16f#\Jk	.	16f#/Jk	.	16ff#\Jk	.	.	.	.	.	.	16F#\Jk	.	16f#\Jk	.	16ff#Jk 16f#/	.	16F#\Jk	.	16ff#Jk 16f#/	.	.	.	.	.	.	.	.	.
=31	=31	=31	=31	=31	=31	=31	=31	=31	=31	=31	=31	=31	=31	=31	=31	=31	=31	=31	=31	=31	=31	=31	=31	=31	=31	=31	=31	=31	=31	=31	=31	=31
4Gn\	.	4Gn\yy	.	4gn\	.	4gn/	.	4ggn\	.	4Ree/	4Ra\	.	1r	.	4Gn\	.	4gn\	.	4ggn 4gn\	.	4Gn\	.	4gg 4g\	.	4r	.	4r	.	4r	.	4r	.
4r	.	4ryy	.	4r	.	4r	.	4r	.	4r	4ryy	.	.	.	4r	.	4r	.	4r	.	4r	.	4r	.	4.cc#X 4.a#X/	.	4.ee\	.	(8.aa#X\L	.	(8.aa#X\L	.
.	.	.	.	.	.	.	.	.	.	.	.	.	.	.	.	.	.	.	.	.	.	.	.	.	.	.	.	.	32bb\LL	.	32bb\LL	.
.	.	.	.	.	.	.	.	.	.	.	.	.	.	.	.	.	.	.	.	.	.	.	.	.	.	.	.	.	32ccc#X\JJJ)	.	32ddd\JJJ	.
4r	.	4ryy	.	4r	.	4r	.	4r	.	2r	2ryy	.	.	.	4r	.	4r	.	4r	.	4r	.	4r	.	.	.	.	.	8ee\	.	8ee\)	.
.	.	.	.	.	.	.	.	.	.	.	.	.	.	.	.	.	.	.	.	.	.	.	.	.	8r	.	8r	.	8r	.	8r	.
8.G\L	.	8.G\Lyy	.	8.g\L	.	8.g/L	.	8.gg\L	.	.	.	.	.	.	8.G\L	.	8.g\L	.	8.ggL 8.g\	.	8.G\L	.	8.ggL 8.g\	.	4r	.	4r	.	4r	.	4r	.
16G\Jk	.	16G\Jkyy	.	16g\Jk	.	16g/Jk	.	16gg\Jk	.	.	.	.	.	.	16G\Jk	.	16g\Jk	.	16ggJk 16g\	.	16G\Jk	.	16ggJk 16g\	.	.	.	.	.	.	.	.	.
=32	=32	=32	=32	=32	=32	=32	=32	=32	=32	=32	=32	=32	=32	=32	=32	=32	=32	=32	=32	=32	=32	=32	=32	=32	=32	=32	=32	=32	=32	=32	=32	=32
4G#X\	.	4G#X\yy	.	4g#X\	.	4g#X/	.	4gg#X\	.	4Ree/	4Ra\	.	1r	.	4G#X\	.	4g#X\	.	4gg#X 4g#X\	.	4G#X\	.	4gg#X 4g#X\	.	2r	.	2r	.	2r	.	2r	.
8.F#\L	.	8.F#\Lyy	.	8.f#\L	.	8.f#/L	.	8.ff#\L	.	4r	4ryy	.	.	.	8.F#\L	.	8.f#\L	.	8.ff#L 8.f#/	.	8.F#X\L	.	8.ff#XL 8.f#X/	.	.	.	.	.	.	.	.	.
16Fn\Jk	.	16Fn\Jkyy	.	16fn\Jk	.	16fn/Jk	.	16ffn\Jk	.	.	.	.	.	.	16Fn\Jk	.	16fn\Jk	.	16ffnJk 16fn/	.	16Fn\Jk	.	16ffnJk 16fn/	.	.	.	.	.	.	.	.	.
4E\	.	4E\yy	.	4e\	.	4e/	.	4ee\	.	2r	2ryy	.	.	.	4E\	.	4e\	.	4ee 4e/	.	4E\	.	4ee 4e/	.	4r	.	4r	.	4r	.	4r	.
!	!	!	!	!	!	!	!	!	!	!	!	!	!	!	!	!	!	!	!	!	!	!	!	!	!	!	!	!	!	!LO:DY:rj	!	!LO:DY:rj
8.D\L	.	8.D\Lyy	.	8.eL 8.d\	.	8.g#/L	.	8.b\L	.	.	.	.	.	.	8.D\L	.	8.BL 8.G#/	.	8.bL 8.e/	.	8.D/L	.	8.eeL 8.e/	.	8.bL 8.g#/	.	8.gg#\L	.	8.bb\L	ff	8.bb\L	ff
16D\Jk	.	16D\Jkyy	.	16eJk 16d\	.	16g#/Jk	.	16b\Jk	.	.	.	.	.	.	16D\Jk	.	16BJk 16G#/	.	16bJk 16e/	.	16D/Jk	.	16eeJk 16e/	.	16bJk 16g#/	.	16gg#\Jk	.	16bb\Jk	.	16bb\Jk	.
!!LO:PB:g=original
=33	=33	=33	=33	=33	=33	=33	=33	=33	=33	=33	=33	=33	=33	=33	=33	=33	=33	=33	=33	=33	=33	=33	=33	=33	=33	=33	=33	=33	=33	=33	=33	=33
*	*	*	*	*	*	*	*	*	*	*	*	*	*	*	*	*	*^	*	*^	*	*	*	*^	*	*^	*	*	*	*	*	*	*
*	*	*	*	*	*	*	*	*	*	*	*	*	*	*	*	*	*	*	*	*	*	*	*	*	*	*	*	*	*	*	*	*	*2\right	*	*	*
!	!	!	!	!	!	!	!	!	!	!	!	!	!	!	!	!	!	!	!	!	!	!	!	!	!	!	!	!	!	!	!	!	!LO:TX:t=col Fl.	!	!LO:TX:t=P:problem:dwa takty partytury wykreślone	!
8.C#\L	.	8.C#\Lyy	.	8.eL 8.c#\	.	8.a/L	.	2ee\	.	8.Ree/L	4Ra\	.	4r	.	2C#/	.	2A/	2A\	.	2a/	2e\	.	8.C#\L	.	2ee 2e/	2ryy	.	2ee/	2a\	.	2aa\	.	2eee\yy	.	2eee\	.
16E\K	.	16E\Kyy	.	16eJk 16c#\	.	16a/Jk	.	.	.	16Ree/Jk	.	.	.	.	.	.	.	.	.	.	.	.	16E\K	.	.	.	.	.	.	.	.	.	.	.	.	.
*	*	*	*	*rep	*	*rep	*	*	*	*rep	*	*	*	*	*	*	*	*	*	*	*	*	*	*	*	*	*	*	*	*	*	*	*	*	*	*
8.A\	.	8.A\yy	.	8.eL 8.c#\	.	8.a/L	.	.	.	8.Ree/L	4r	.	4AA/	.	.	.	.	.	.	.	.	.	8.A\	.	.	.	.	.	.	.	.	.	.	.	.	.
16c#\Jk	.	16c#\Jkyy	.	16eJk 16c#\	.	16a/Jk	.	.	.	16Ree/Jk	.	.	.	.	.	.	.	.	.	.	.	.	16c#\Jk	.	.	.	.	.	.	.	.	.	.	.	.	.
*	*	*	*	*Xrep	*	*Xrep	*	*	*	*Xrep	*	*	*	*	*	*	*	*	*	*	*	*	*	*	*	*	*	*	*	*	*	*	*	*	*	*
*	*	*	*	*	*	*rep	*	*	*	*rep	*	*	*	*	*	*	*	*	*	*	*	*	*	*	*	*	*	*	*	*	*	*	*	*	*	*
8.C#\L	.	8.C#\Lyy	.	8.e#XL 8.c#\	.	8.a/L	.	(2ee#Xt\	.	8.Ree/L	4Ra\	.	4r	.	2C#/	.	2A/	2A\	.	2a/	2e#X\	.	8.C#\L	.	2cc#X/	2cc#\	.	2ee#Xt/	2ee# 2a\	.	2aa\	.	2eee#Xt\yy	.	2eee#Xt\	.
16E#X\K	.	16E#X\Kyy	.	16e#Jk 16c#\	.	16a/Jk	.	.	.	16Ree/Jk	.	.	.	.	.	.	.	.	.	.	.	.	16E#X\K	.	.	.	.	.	.	.	.	.	.	.	.	.
*	*	*	*	*	*	*Xrep	*	*	*	*Xrep	*	*	*	*	*	*	*	*	*	*	*	*	*	*	*	*	*	*	*	*	*	*	*	*	*	*
*	*	*	*	*rep	*	*rep	*	*	*	*rep	*	*	*	*	*	*	*	*	*	*	*	*	*	*	*	*	*	*	*	*	*	*	*	*	*	*
8.A\	.	8.A\yy	.	8.e#L 8.c#\	.	8.a/L	.	.	.	8.Ree/L	4r	.	4AA/	.	.	.	.	.	.	.	.	.	8.A\	.	.	.	.	.	.	.	.	.	.	.	.	.
16c#\Jk	.	16c#\Jkyy	.	16e#Jk 16c#\	.	16a/Jk	.	.	.	16Ree/Jk	.	.	.	.	.	.	.	.	.	.	.	.	16c#\Jk	.	.	.	.	.	.	.	.	.	.	.	.	.
*	*	*	*	*Xrep	*	*Xrep	*	*	*	*Xrep	*	*	*	*	*	*	*	*	*	*	*	*	*	*	*	*	*	*	*	*	*	*	*	*	*	*
.	.	.	.	.	.	.	.	32qqdd#X/LLL	.	.	.	.	.	.	.	.	.	.	.	.	.	.	.	.	.	.	.	(32qqdd#X/LLL	.	.	.	.	(y32qqddd#X/LLLyy	.	(32qqddd#X/LLL	.
.	.	.	.	.	.	.	.	32qqee#/JJJ	.	.	.	.	.	.	.	.	.	.	.	.	.	.	.	.	.	.	.	32qqee#/JJJ)	.	.	.	.	32qqeee#/JJJ)yy	.	32qqeee#/JJJ)	.
=34	=34	=34	=34	=34	=34	=34	=34	=34	=34	=34	=34	=34	=34	=34	=34	=34	=34	=34	=34	=34	=34	=34	=34	=34	=34	=34	=34	=34	=34	=34	=34	=34	=34	=34	=34	=34
*	*	*	*	*	*	*	*	*	*	*rep	*rep	*	*	*	*	*	*	*	*	*	*	*	*	*	*	*	*	*	*	*	*	*	*	*	*	*
8.D\L	.	8.D\Lyy	.	8.f#L 8.d\	.	8.a/L	.	2ff#\)	.	8.Ree/L	4Ra\	.	4r	.	2D\	.	2d/	2A\	.	2a/	2f#\	.	8.D\L	.	2dd/	2dd\	.	2ff#/	2a\	.	2aa\	.	2fff#\yy	.	2fff#\	.
16F#\K	.	16F#\Kyy	.	16f#Jk 16d\	.	16a/Jk	.	.	.	16Ree/Jk	.	.	.	.	.	.	.	.	.	.	.	.	16F#\K	.	.	.	.	.	.	.	.	.	.	.	.	.
*	*	*	*	*rep	*	*rep	*	*	*	*	*	*	*	*	*	*	*	*	*	*	*	*	*	*	*	*	*	*	*	*	*	*	*	*	*	*
8.A\	.	8.A\yy	.	8.f#L 8.d\	.	8.a/L	.	.	.	8.Ree/L	4r	.	4AA/	.	.	.	.	.	.	.	.	.	8.A\	.	.	.	.	.	.	.	.	.	.	.	.	.
16d\Jk	.	16d\Jkyy	.	16f#Jk 16d\	.	16a/Jk	.	.	.	16Ree/Jk	.	.	.	.	.	.	.	.	.	.	.	.	16d\Jk	.	.	.	.	.	.	.	.	.	.	.	.	.
*	*	*	*	*Xrep	*	*Xrep	*	*	*	*	*	*	*	*	*	*	*	*	*	*	*	*	*	*	*	*	*	*	*	*	*	*	*	*	*	*
8.D#X\L	.	8.D#X\Lyy	.	8.f#L 8.d#X\	.	8.aL 8.f#/	.	4.aa\	.	8.Ree/L	4Ra\	.	4r	.	2D#X\	.	4.f#\	4.A\	.	4.a/	4.f#\	.	8.D#X\L	.	4.dd#X/	4.dd#\	.	4.ff#/	4.a\	.	4.aa\	.	4.aaa\yy	.	4.aaa\	.
16F#\K	.	16F#\Kyy	.	16f#Jk 16d#\	.	16aJk 16f#/	.	.	.	16Ree/Jk	.	.	.	.	.	.	.	.	.	.	.	.	16F#\K	.	.	.	.	.	.	.	.	.	.	.	.	.
*	*	*	*	*rep	*	*rep	*	*	*	*	*	*	*	*	*	*	*	*	*	*	*	*	*	*	*	*	*	*	*	*	*	*	*	*	*	*
8A\	.	8A\yy	.	8.f#L 8.d#\	.	8.aL 8.f#/	.	.	.	8.Ree/L	4r	.	4AA/	.	.	.	.	.	.	.	.	.	8A\	.	.	.	.	.	.	.	.	.	.	.	.	.
8D#\J	.	8D#\Jyy	.	.	.	.	.	8b#X\	.	.	.	.	.	.	.	.	8B#X/	8A\	.	8b#X/	8f#\	.	8D#\J	.	8dd#/	8dd#\	.	8ff#/	8a\	.	8aa\	.	8bb#X\yy	.	8bb#X\	.
.	.	.	.	16f#Jk 16d#\	.	16aJk 16f#/	.	.	.	16Ree/Jk	.	.	.	.	.	.	.	.	.	.	.	.	.	.	.	.	.	.	.	.	.	.	.	.	.	.
*	*	*	*	*Xrep	*	*Xrep	*	*	*	*Xrep	*Xrep	*	*	*	*	*	*	*	*	*	*	*	*	*	*	*	*	*	*	*	*	*	*	*	*	*
*	*	*	*	*	*	*	*	*	*	*	*	*	*	*	*	*	*	*	*	*v	*v	*	*	*	*	*	*	*	*	*	*	*	*	*	*	*
!!LO:PB:g=original
=35	=35	=35	=35	=35	=35	=35	=35	=35	=35	=35	=35	=35	=35	=35	=35	=35	=35	=35	=35	=35	=35	=35	=35	=35	=35	=35	=35	=35	=35	=35	=35	=35	=35	=35	=35
!	!	!	!	!	!	!	!	!	!	!	!	!	!	!	!	!	!	!	!	!	!	!	!	!	!	!	!	!	!	!LO:TX:t=P:problem:mixed beam	!	!	!	!	!
8E\	.	8E\yy	.	8e\	.	8a 8e/	.	8cc#/L	.	8Ree/	8Ra\	.	8AA/	.	8E\	.	8c#/	8A\	.	8cc# 8e/	.	8E\	.	8ee/	8ee\	.	8ee 8a\	4ryy	.	8aa\L	.	8ccc#\	.	8ccc#\L	.
!	!	!	!	!	!	!	!	!LO:TUP:b:problem:klamra łukowa	!	!	!	!	!	!	!	!	!	!	!	!	!	!	!	!	!	!	!	!	!	!LO:TUP:b:problem:klamra łukowa	!	!	!	!LO:TUP:a	!
8r	.	8ryy	.	8r	.	8r	.	24e/L	.	8r	8ryy	.	8r	.	8r	.	8r	8ryy	p	8r	.	8r	.	8r	8ryy	.	8r	.	.	24e/L	.	8r	.	(24ee\L	.
.	.	.	.	.	.	.	.	24a/	.	.	.	.	.	.	.	.	.	.	.	.	.	.	.	.	.	.	.	.	.	24a/	.	.	.	24aa\	.
.	.	.	.	.	.	.	.	24cc#/JJ	.	.	.	.	.	.	.	.	.	.	.	.	.	.	.	.	.	.	.	.	.	24cc#/JJ	.	.	.	24ccc#\JJ	.
!	!	!	!	!	!	!	!LO:DY:rj	!	!	!	!	!	!	!	!	!LO:DY:rj	!	!	!	!	!	!	!	!	!	!	!	!	!	!	!	!	!	!	!
8E\	.	8E\yy	.	8e 8A\	.	8cc# 8e/	p	8ee\L	.	4r	4ryy	.	4r	.	8E\	p	8c#/	8A\	.	4r	.	8A\	.	8ee/	8cc#X\	p	4r	4r	.	8ee\L	.	8r	.	8eee\)	.
!	!	!	!	!	!	!	!	!	!	!	!	!	!	!	!	!	!	!	!	!	!	!	!	!	!	!	!	!	!	!LO:TUP:a	!	!LO:TUP:a	!	!	!
8r	.	8ryy	.	8r	.	8r	.	(24a\L	.	.	.	.	.	.	8r	.	8r	8ryy	.	.	.	8r	.	8r	8ryy	.	.	.	.	(24a\L	.	(24a\LL	.	8r	.
.	.	.	.	.	.	.	.	24cc#\	.	.	.	.	.	.	.	.	.	.	.	.	.	.	.	.	.	.	.	.	.	24cc#\	.	24cc#\	.	.	.
.	.	.	.	.	.	.	.	24ee\JJ	.	.	.	.	.	.	.	.	.	.	.	.	.	.	.	.	.	.	.	.	.	24ee\JJ	.	24ee\JJ	.	.	.
8E\	.	8E\yy	.	8e 8A\	.	8cc# 8e/	.	8aa\L)	.	2r	2ryy	.	2r	.	8E\	.	8c#/	8A\	.	2r	.	8A\	.	8ee/	8cc#\	.	8r	4r	.	8aa\)	.	8aa\L)	.	8r	.
8r	.	8ryy	.	8r	.	8r	.	(32cc#\LL	.	.	.	.	.	.	8r	.	8r	8ryy	.	.	.	8r	.	8r	8ryy	.	(32c#/LLL	.	.	8r	.	32cc#\LL	.	(32cc#\LLL	.
.	.	.	.	.	.	.	.	32ee\	.	.	.	.	.	.	.	.	.	.	.	.	.	.	.	.	.	.	32e/	.	.	.	.	32ee\	.	32ee\	.
.	.	.	.	.	.	.	.	32aa\	.	.	.	.	.	.	.	.	.	.	.	.	.	.	.	.	.	.	32a/	.	.	.	.	32aa\	.	32aa\	.
.	.	.	.	.	.	.	.	32ccc#\JJJ	.	.	.	.	.	.	.	.	.	.	.	.	.	.	.	.	.	.	32cc#/JJJ	.	.	.	.	32ccc#\JJJ	.	32ccc#\JJJ	.
4E\	.	4E\yy	.	4e 4B\	.	4dd 4e/	.	16eee\LL)	.	.	.	.	.	.	4E\	.	4d/	4B\	.	.	.	4G#\	.	4ee/	4b\	.	16ee/LL)	4d\	.	4b\	.	16eee\LL	.	16eee\LL)	.
.	.	.	.	.	.	.	.	16gg#\J	.	.	.	.	.	.	.	.	.	.	.	.	.	.	.	.	.	.	16g#/J	.	.	.	.	16gg#\J	.	16gg#\J	.
.	.	.	.	.	.	.	.	8gg#t\J	.	.	.	.	.	.	.	.	.	.	.	.	.	.	.	.	.	.	8g#t/J	.	.	.	.	8gg#t\J	.	8gg#t\J	.
*	*	*	*	*	*	*	*	*	*	*	*	*	*	*	*	*	*v	*v	*	*	*	*	*	*	*	*	*	*	*	*	*	*	*	*	*
=	=	=	=	=	=	=	=	=	=	=	=	=	=	=	=	=	=	=	=	=	=	=	=	=	=	=	=	=	=	=	=	=	=	=
4A\	.	4A\yy	.	4e 4A\	.	4cc# 4e/	.	4aa\	.	4r	4ryy	.	4r	.	4AA/	.	4c# 4A\	.	4r	.	4A\	.	4ee/	4cc#X\	.	4a/	4c#\	.	4cc#\	.	4aa\	.	4aa\	.
!	!LO:DY:rj	!	!LO:DY:rj	!	!LO:DY:rj	!	!LO:DY:rj	!	!	!	!	!LO:DY:rj	!	!	!	!	!	!LO:DY:rj	!	!	!	!LO:DY:rj	!	!	!LO:DY:rj	!	!	!	!	!	!	!	!	!
8.AA/L	f	8.AA/Lyy	fy	8.aL 8.c#\	f	8.eeL 8.a\	f	8.aaL 8.cc#\	.	8.Ree/L	4Ra\	f	8.AA/L	.	8.A\L	.	8.aL 8.c#\	f	8.a/L	.	8.A\L	f	8.eeL 8.cc#\	4ryy	f	8.eeL 8.cc#\	2ryy	.	8.aa\L	.	8.aa\L	.	8.aaa\L	.
16AA/Jk	.	16AA/Jkyy	.	16aJk 16c#\	.	16eeJk 16a\	.	16aaJk 16cc#\	.	16Ree/Jk	.	.	16AA/Jk	.	16A\Jk	.	16aJk 16c#\	.	16a/Jk	.	16A\Jk	.	16eeJk 16cc#\	.	.	16eeJk 16cc#\	.	.	16aa\Jk	.	16aa\Jk	.	16aaa\Jk	.
!	!	!	!	!	!	!	!	!	!	!	!	!	!	!	!	!	!	!	!	!	!	!	!	!	!	!	!	!	!	!	!	!	!LO:TX:a:t=[segno]:problem:znak segno na kresce taktowej, dopisane ołówkiem	!
4AA/	.	4AA/yy	.	4a 4c#\	.	4ee 4a\	.	4aa 4cc#\	.	4Ree/	4Ra\	.	4AA/	.	4A\	.	4a 4c#\	.	4a/	.	4A\	.	4ee 4cc#\	4ryy	.	4ee 4cc#\	.	.	4aa\	.	4aa\	.	4aaa\	.
*	*	*	*	*	*	*	*	*	*	*	*	*	*	*	*	*	*	*	*	*	*	*	*v	*v	*	*	*	*	*	*	*	*	*	*
*	*	*	*	*	*	*	*	*	*	*v	*v	*	*	*	*	*	*	*	*	*	*	*	*	*	*v	*v	*	*	*	*	*	*	*
=36:|!	=36:|!	=36:|!	=36:|!	=36:|!	=36:|!	=36:|!	=36:|!	=36:|!	=36:|!	=36:|!	=36:|!	=36:|!	=36:|!	=36:|!	=36:|!	=36:|!	=36:|!	=36:|!	=36:|!	=36:|!	=36:|!	=36:|!	=36:|!	=36:|!	=36:|!	=36:|!	=36:|!	=36:|!	=36:|!	=36:|!	=36:|!
*>E	*>E	*>E	*>E	*>E	*>E	*>E	*>E	*>E	*>E	*>E	*>E	*>E	*>E	*>E	*>E	*>E	*>E	*>E	*>E	*>E	*>E	*>E	*>E	*>E	*>E	*>E	*>E	*>E	*>E	*>E	*>E
*k[]	*	*k[]	*	*k[]	*	*k[]	*	*k[]	*	*k[]	*	*k[]	*	*k[]	*	*k[]	*	*k[]	*	*k[]	*	*k[]	*	*k[]	*	*k[]	*	*k[]	*	*k[]	*
*	*	*	*	*	*	*	*	*	*	*	*	*	*	*	*	*	*	*	*	*	*	*	*	*^	*	*	*	*	*	*	*
!	!	!	!	!	!	!	!LO:DY:rj	!	!	!	!	!	!	!	!	!	!	!	!	!	!LO:DY:a	!	!	!	!	!	!	!	!	!	!	!
8.A\L	ff	8.A\Lyy	ffy	8.a\L	.	8.a/L	ff	4r	.	4r	.	8.AA/L	.	8.A\L	.	8.A\L	.	8.a/L	.	8.A\L	ff	4r	.	8.a/L	4ryy	.	4r	.	4r	.	4r	.
16A\Jk	.	16A\Jkyy	.	16a\Jk	.	16a/Jk	.	.	.	.	.	16AA/Jk	.	16A\Jk	.	16A\Jk	.	16a/Jk	.	16A\Jk	.	.	.	16a/Jk	.	.	.	.	.	.	.	.
*	*	*	*	*	*	*	*	*	*	*	*	*	*	*	*	*	*	*	*	*	*	*	*	*v	*v	*	*	*	*	*	*	*
=37	=37	=37	=37	=37	=37	=37	=37	=37	=37	=37	=37	=37	=37	=37	=37	=37	=37	=37	=37	=37	=37	=37	=37	=37	=37	=37	=37	=37	=37	=37	=37
*k[]	*	*k[]	*	*k[]	*	*k[]	*	*k[]	*	*k[]	*	*k[]	*	*k[]	*	*k[]	*	*k[]	*	*k[]	*	*k[]	*	*k[]	*	*k[]	*	*k[]	*	*k[]	*
*	*	*	*	*	*	*	*	*	*	*^	*	*	*	*	*	*	*	*	*	*	*	*^	*	*^	*	*	*	*	*	*	*
*	*	*	*	*tremolo	*	*tremolo	*	*	*	*tremolo	*2\right	*	*2\right	*	*	*	*	*	*	*	*	*	*	*	*	*	*	*	*	*	*	*	*	*
*	*	*	*	*	*	*2\right	*	*	*	*	*	*	*	*	*	*	*	*	*	*	*	*	*	*	*	*	*	*	*	*	*	*	*	*
2AA/	.	2AA/yy	.	32ddLLL 32d\	.	32ffLLL 32a\	.	2r	.	32Ree/LLL	2Ra\	.	2DT\	.	8A\L	.	2f 2d\	.	8a/L	.	2AA/	.	2ff/	2dd\	.	2ff/	2dd\	.	2r	.	2r	.	2r	.
.	.	.	.	32dd 32d\	.	32ff 32a\	.	.	.	32Ree/	.	.	.	.	.	.	.	.	.	.	.	.	.	.	.	.	.	.	.	.	.	.	.	.
.	.	.	.	32dd 32d\	.	32ff 32a\	.	.	.	32Ree/	.	.	.	.	.	.	.	.	.	.	.	.	.	.	.	.	.	.	.	.	.	.	.	.
.	.	.	.	32dd 32d\	.	32ff 32a\	.	.	.	32Ree/	.	.	.	.	.	.	.	.	.	.	.	.	.	.	.	.	.	.	.	.	.	.	.	.
.	.	.	.	32dd 32d\	.	32ff 32a\	.	.	.	32Ree/	.	.	.	.	16A\L	.	.	.	16a/L	.	.	.	.	.	.	.	.	.	.	.	.	.	.	.
.	.	.	.	32dd 32d\	.	32ff 32a\	.	.	.	32Ree/	.	.	.	.	.	.	.	.	.	.	.	.	.	.	.	.	.	.	.	.	.	.	.	.
.	.	.	.	32dd 32d\	.	32ff 32a\	.	.	.	32Ree/	.	.	.	.	16A\JJ	.	.	.	16a/JJ	.	.	.	.	.	.	.	.	.	.	.	.	.	.	.
.	.	.	.	32dd 32d\	.	32ff 32a\	.	.	.	32Ree/	.	.	.	.	.	.	.	.	.	.	.	.	.	.	.	.	.	.	.	.	.	.	.	.
*	*	*	*	*	*	*	*	*	*	*	*	*	*	*	*rep	*	*	*	*rep	*	*	*	*	*	*	*	*	*	*	*	*	*	*	*
.	.	.	.	32dd 32d\	.	32ff 32a\	.	.	.	32Ree/	.	.	.	.	8A\L	.	.	.	8a/L	.	.	.	.	.	.	.	.	.	.	.	.	.	.	.
.	.	.	.	32dd 32d\	.	32ff 32a\	.	.	.	32Ree/	.	.	.	.	.	.	.	.	.	.	.	.	.	.	.	.	.	.	.	.	.	.	.	.
.	.	.	.	32dd 32d\	.	32ff 32a\	.	.	.	32Ree/	.	.	.	.	.	.	.	.	.	.	.	.	.	.	.	.	.	.	.	.	.	.	.	.
.	.	.	.	32dd 32d\	.	32ff 32a\	.	.	.	32Ree/	.	.	.	.	.	.	.	.	.	.	.	.	.	.	.	.	.	.	.	.	.	.	.	.
.	.	.	.	32dd 32d\	.	32ff 32a\	.	.	.	32Ree/	.	.	.	.	16A\L	.	.	.	16a/L	.	.	.	.	.	.	.	.	.	.	.	.	.	.	.
.	.	.	.	32dd 32d\	.	32ff 32a\	.	.	.	32Ree/	.	.	.	.	.	.	.	.	.	.	.	.	.	.	.	.	.	.	.	.	.	.	.	.
.	.	.	.	32dd 32d\	.	32ff 32a\	.	.	.	32Ree/	.	.	.	.	16A\JJ	.	.	.	16a/JJ	.	.	.	.	.	.	.	.	.	.	.	.	.	.	.
.	.	.	.	32ddJJJ 32d\	.	32ffJJJ 32a\	.	.	.	32Ree/JJJ	.	.	.	.	.	.	.	.	.	.	.	.	.	.	.	.	.	.	.	.	.	.	.	.
*	*	*	*	*Xtremolo	*	*Xtremolo	*	*	*	*Xtremolo	*	*	*	*	*Xrep	*	*	*	*Xrep	*	*	*	*	*	*	*	*	*	*	*	*	*	*	*
!	!	!	!	!	!	!	!	!	!LO:DY:rj	!	!	!	!	!	!	!	!	!	!	!	!	!	!	!	!	!	!	!	!	!LO:DY:rj	!	!	!	!LO:DY:rj
.	.	.	.	.	.	.	.	(32qqddd/LLL	ff	.	.	.	.	.	.	.	.	.	.	.	.	.	.	.	.	.	.	.	(32qqdd/LLL	ff	(32qqddd/LLL	.	(32qqddd/LLL	ff
!LO:TX:t=P:problem:mixed beam	!	!LO:TX:t=P:problem:mixed beam	!	!	!	!	!	!	!	!	!	!	!	!	!	!	!	!	!	!	!LO:TX:t=P:problem:mixed beam	!	!	!	!	!	!	!	!	!	!	!	!	!
.	.	.	.	.	.	.	.	32qqeee/JJJ	.	.	.	.	.	.	.	.	.	.	.	.	.	.	.	.	.	.	.	.	32qqee/JJJ	.	32qqeee/JJJ	.	32qqeee/JJJ	.
8.AA/L	.	8.AA/Lyy	.	8.ddL 8.d\	.	8.ffL 8.a\	.	8.fff\L)	.	8.Ree/L	2r	.	8.D\L	.	8.A\L	.	8.fL 8.d\	.	8.a/L	.	8.AA/L	.	8.ffL 8.dd\	2ryy	.	4.ff/	8.dd\L	.	8.ff\L)	.	8.fff\L)	.	8.fff\L)	.
16A\K	.	16A\Kyy	.	16ddK 16d\	.	16ffK 16a\	.	16ddd\K	.	16Ree/Jk	.	.	16D\Jk	.	16A\Jk	.	16fJk 16d\	.	16a/Jk	.	16A\K	.	16ffK 16dd\	.	.	.	16ffK 16dd\	.	16dd\K	.	16ddd\K	.	16ddd\K	.
*	*	*	*	*	*	*	*	*	*	*rep	*	*	*rep	*	*rep	*	*rep	*	*rep	*	*	*	*	*	*	*	*	*	*	*	*	*	*	*
8.AA/	.	8.AA/yy	.	8.dd 8.d\	.	8.ff 8.a\	.	8.aa\	.	8.Ree/L	.	.	8.D\L	.	8.A\L	.	8.fL 8.d\	.	8.a/L	.	8.AA/	.	8.ff 8.dd\	.	.	.	8.ff 8.dd\	.	8.a\	.	8.aa\	.	8.aa\	.
.	.	.	.	.	.	.	.	.	.	.	.	.	.	.	.	.	.	.	.	.	.	.	.	.	.	8ryy	.	.	.	.	.	.	.	.
16A\Jk	.	16A\Jkyy	.	16ddJk 16d\	.	16ffJk 16a\	.	16ff\Jk	.	16Ree/Jk	.	.	16D\Jk	.	16A\Jk	.	16fJk 16d\	.	16a/Jk	.	16A\Jk	.	16ffJk 16dd\	.	.	.	16ffJk 16dd\	.	16f\Jk	.	16ff\Jk	.	16ff\Jk	.
*	*	*	*	*	*	*	*	*	*	*Xrep	*	*	*Xrep	*	*Xrep	*	*Xrep	*	*Xrep	*	*	*	*	*	*	*	*	*	*	*	*	*	*	*
!!LO:PB:g=original
=38	=38	=38	=38	=38	=38	=38	=38	=38	=38	=38	=38	=38	=38	=38	=38	=38	=38	=38	=38	=38	=38	=38	=38	=38	=38	=38	=38	=38	=38	=38	=38	=38	=38	=38
8AA/	.	8AA/yy	.	8cc#X 8e\	.	8ee 8a\	.	8ee\	.	8Ree/	8Ra\	.	8AA/	.	8A\	.	8e 8c#X\	.	8a/	.	8AA/	.	8ee/	8cc#X\	.	8ee/	8cc#X\	.	8e/	.	8ee\	.	8ee\	.
(16A\LL	.	(y16A\LLyy	.	(16a\LL	.	(16a/LL	.	8r	.	8r	8ryy	.	8r	.	8r	.	8r	.	8r	.	8r	.	8r	8ryy	.	8r	8ryy	.	8r	.	8r	.	8r	.
16G#X\JJ)	.	16G#X\JJ)yy	.	16g#X\JJ)	.	16g#X/JJ)	.	.	.	.	.	.	.	.	.	.	.	.	.	.	.	.	.	.	.	.	.	.	.	.	.	.	.	.
8A\L	.	8A\Lyy	.	8a\L	.	8a/L	.	4r	.	4r	4ryy	.	4r	.	4r	.	4r	.	4r	.	4r	.	4r	4ryy	.	4r	4ryy	.	4r	.	4r	.	4r	.
(16A\L	.	(y16A\Lyy	.	(16a\L	.	(16a/L	.	.	.	.	.	.	.	.	.	.	.	.	.	.	.	.	.	.	.	.	.	.	.	.	.	.	.	.
16G#\JJ	.	16G#\JJyy	.	16g#\JJ	.	16g#/JJ)	.	.	.	.	.	.	.	.	.	.	.	.	.	.	.	.	.	.	.	.	.	.	.	.	.	.	.	.
(8A\L)	.	(y8A\L)yy	.	8a\L)	.	8a/L	.	2r	.	2r	2ryy	.	4r	.	4r	.	4r	.	4r	.	4r	.	2r	2ryy	.	4r	4ryy	.	2r	.	2r	.	2r	.
8qB-X/	.	8qB-X/yy	.	8qb-X/	.	8qb-X/	.	.	.	.	.	.	.	.	.	.	.	.	.	.	.	.	.	.	.	.	.	.	.	.	.	.	.	.
16A\L	.	16A\Lyy	.	(16a\L	.	(16a/L	.	.	.	.	.	.	.	.	.	.	.	.	.	.	.	.	.	.	.	.	.	.	.	.	.	.	.	.
16G#\JJ)	.	16G#\JJ)yy	.	16g#\JJ)	.	16g#/JJ)	.	.	.	.	.	.	.	.	.	.	.	.	.	.	.	.	.	.	.	.	.	.	.	.	.	.	.	.
8.A\L	.	8.A\Lyy	.	8.a\L	.	8.a/L	.	.	.	.	.	.	8.AA/L	.	8.A\L	.	8.A\L	.	8.a/L	.	8.A\L	.	.	.	.	8.a/L	4ryy	.	.	.	.	.	.	.
16A\Jk|	.	16A\Jk|yy	.	16a\Jk|	.	16a/Jk	.	.	.	.	.	.	16AA/Jk	.	16A\Jk	.	16A\Jk	.	16a/Jk	.	16A\Jk	.	.	.	.	16a/Jk	.	.	.	.	.	.	.	.
=39	=39	=39	=39	=39	=39	=39	=39	=39	=39	=39	=39	=39	=39	=39	=39	=39	=39	=39	=39	=39	=39	=39	=39	=39	=39	=39	=39	=39	=39	=39	=39	=39	=39	=39
*	*	*	*	*	*	*	*	*	*	*	*	*	*	*	*	*	*^	*	*	*	*	*	*	*	*	*	*	*	*	*	*	*	*	*
*	*	*	*	*tremolo	*	*tremolo	*	*	*	*tremolo	*	*	*	*	*	*	*	*	*	*	*	*	*	*	*	*	*	*	*	*	*	*	*	*	*
2AA/	.	2AA/yy	.	32ddLLL 32d\	.	32ffLLL 32a\	.	2r	.	16Ree/LL	2Ra\	.	2DTT\	.	8A\L	.	2f/	2d\	.	8a/L	.	2AA/	.	2ff/	2dd\	.	2ff/	2dd\	.	2r	.	2r	.	2r	.
.	.	.	.	32dd 32d\	.	32ff 32a\	.	.	.	.	.	.	.	.	.	.	.	.	.	.	.	.	.	.	.	.	.	.	.	.	.	.	.	.	.
.	.	.	.	32dd 32d\	.	32ff 32a\	.	.	.	16Ree/	.	.	.	.	.	.	.	.	.	.	.	.	.	.	.	.	.	.	.	.	.	.	.	.	.
.	.	.	.	32dd 32d\	.	32ff 32a\	.	.	.	.	.	.	.	.	.	.	.	.	.	.	.	.	.	.	.	.	.	.	.	.	.	.	.	.	.
.	.	.	.	32dd 32d\	.	32ff 32a\	.	.	.	16Ree/	.	.	.	.	16A\L	.	.	.	.	16a/L	.	.	.	.	.	.	.	.	.	.	.	.	.	.	.
.	.	.	.	32dd 32d\	.	32ff 32a\	.	.	.	.	.	.	.	.	.	.	.	.	.	.	.	.	.	.	.	.	.	.	.	.	.	.	.	.	.
.	.	.	.	32dd 32d\	.	32ff 32a\	.	.	.	16Ree/	.	.	.	.	16A\JJ	.	.	.	.	16a/JJ	.	.	.	.	.	.	.	.	.	.	.	.	.	.	.
.	.	.	.	32dd 32d\	.	32ff 32a\	.	.	.	.	.	.	.	.	.	.	.	.	.	.	.	.	.	.	.	.	.	.	.	.	.	.	.	.	.
*	*	*	*	*	*	*	*	*	*	*	*	*	*	*	*rep	*	*	*	*	*rep	*	*	*	*	*	*	*	*	*	*	*	*	*	*	*
.	.	.	.	32dd 32d\	.	32ff 32a\	.	.	.	16Ree/	.	.	.	.	8A\L	.	.	.	.	8a/L	.	.	.	.	.	.	.	.	.	.	.	.	.	.	.
.	.	.	.	32dd 32d\	.	32ff 32a\	.	.	.	.	.	.	.	.	.	.	.	.	.	.	.	.	.	.	.	.	.	.	.	.	.	.	.	.	.
.	.	.	.	32dd 32d\	.	32ff 32a\	.	.	.	16Ree/	.	.	.	.	.	.	.	.	.	.	.	.	.	.	.	.	.	.	.	.	.	.	.	.	.
.	.	.	.	32dd 32d\	.	32ff 32a\	.	.	.	.	.	.	.	.	.	.	.	.	.	.	.	.	.	.	.	.	.	.	.	.	.	.	.	.	.
.	.	.	.	32dd 32d\	.	32ff 32a\	.	.	.	16Ree/	.	.	.	.	16A\L	.	.	.	.	16a/L	.	.	.	.	.	.	.	.	.	.	.	.	.	.	.
.	.	.	.	32dd 32d\	.	32ff 32a\	.	.	.	.	.	.	.	.	.	.	.	.	.	.	.	.	.	.	.	.	.	.	.	.	.	.	.	.	.
.	.	.	.	32dd 32d\	.	32ff 32a\	.	.	.	16Ree/JJ	.	.	.	.	16A\JJ	.	.	.	.	16a/JJ	.	.	.	.	.	.	.	.	.	.	.	.	.	.	.
.	.	.	.	32ddJJJ 32d\	.	32ffJJJ 32a\	.	.	.	.	.	.	.	.	.	.	.	.	.	.	.	.	.	.	.	.	.	.	.	.	.	.	.	.	.
.	.	.	.	.	.	.	.	(32qqaa/LLL	.	.	.	.	.	.	.	.	.	.	.	.	.	.	.	.	.	.	.	.	.	(32qqaa/LLL	.	(32qqaa/LLL	.	(32qqaa/LLL	.
.	.	.	.	.	.	.	.	32qqbb/	.	.	.	.	.	.	.	.	.	.	.	.	.	.	.	.	.	.	.	.	.	32qqbb/	.	32qqbb/	.	32qqbb/	.
*	*	*	*	*Xtremolo	*	*Xtremolo	*	*	*	*Xtremolo	*	*	*	*	*Xrep	*	*	*	*	*Xrep	*	*	*	*	*	*	*	*	*	*	*	*	*	*	*
!LO:TX:t=P:problem:mixed beam	!	!LO:TX:t=P:problem:mixed beam	!	!	!	!	!	!	!	!	!	!	!	!	!	!	!	!	!	!	!	!LO:TX:t=P:problem:mixed beam	!	!	!	!	!	!	!	!	!	!	!	!	!
.	.	.	.	.	.	.	.	32qqccc#X/JJJ	.	.	.	.	.	.	.	.	.	.	.	.	.	.	.	.	.	.	.	.	.	32qqccc#X/JJJ	.	32qqccc#X/JJJ	.	32qqccc#X/JJJ)	.
8.AA/L	.	8.AA/Lyy	.	8.ddL 8.d\	.	8.ffL 8.a\	.	8.ddd\L)	.	8.Ree/L	2r	.	8.D\L	.	8.A\L	.	8.fL 8.d\	2ryy	.	8.a/L	.	8.AA/L	.	8.ffL 8.dd\	2ryy	.	8.ffL 8.dd\	2ryy	.	8.ddd\L)	.	8.ddd\L)	.	8.ddd\L	.
16A\K	.	16A\Kyy	.	16ddK 16d\	.	16ffK 16a\	.	16aa\K	.	16Ree/Jk	.	.	16D\Jk	.	16A\Jk	.	16fJk 16d\	.	.	16a/Jk	.	16A\K	.	16ffK 16dd\	.	.	16ffK 16dd\	.	.	16aa\K	.	16aa\K	.	16aaa\K	.
*	*	*	*	*	*	*	*	*	*	*rep	*	*	*rep	*	*rep	*	*rep	*	*	*rep	*	*	*	*	*	*	*	*	*	*	*	*	*	*	*
8.AA/	.	8.AA/yy	.	8.dd 8.d\	.	8.ff 8.a\	.	8.ff\	.	8.Ree/L	.	.	8.D\L	.	8.A\L	.	8.fL 8.d\	.	.	8.a/L	.	8.AA/	.	8.ff 8.dd\	.	.	8.ff 8.dd\	.	.	8.ff\	.	8.ff\	.	8.fff\	.
16A\Jk	.	16A\Jkyy	.	16ddJk 16d\	.	16ffJk 16a\	.	16dd\Jk	.	16Ree/Jk	.	.	16D\Jk	.	16A\Jk	.	16fJk 16d\	.	.	16a/Jk	.	16A\Jk	.	16ffJk 16dd\	.	.	16ffJk 16dd\	.	.	16dd\Jk	.	16dd\Jk	.	16ddd\Jk	.
*	*	*	*	*	*	*	*	*	*	*Xrep	*	*	*Xrep	*	*Xrep	*	*Xrep	*	*	*Xrep	*	*	*	*	*	*	*	*	*	*	*	*	*	*	*
=40	=40	=40	=40	=40	=40	=40	=40	=40	=40	=40	=40	=40	=40	=40	=40	=40	=40	=40	=40	=40	=40	=40	=40	=40	=40	=40	=40	=40	=40	=40	=40	=40	=40	=40	=40
4.AA/	.	4.AA/yy	.	4.cc#X 4.e\	.	4.ee 4.a\	.	4.cc#X\	.	4.Ree/	4.Ra\	.	4.AA/	.	4.A\	.	4.e/	4.c#X\	.	4.a/	.	4.AA/	.	4.ee/	4.cc#X\	.	4.ee/	4.cc#X\	.	4.cc#X\	.	4.cc#X\	.	4.ccc#X\	.
8r	.	8ryy	.	8r	.	8r	.	8r	.	8r	8ryy	.	8r	.	8r	.	8r	8ryy	.	8r	.	8r	.	8r	8ryy	.	8a/	8ryy	p	8a/	.	8r	.	8r	.
!	!	!	!	!	!	!	!	!	!	!	!	!	!	!	!	!	!	!	!	!	!	!	!LO:DY:rj	!	!	!	!	!	!	!	!	!	!	!	!
2r	.	2ryy	.	2r	.	2r	.	2r	.	2r	2ryy	.	2r	.	2r	.	2r	2ryy	.	2r	.	2A\	p	2ee/	2ee\	.	4.cc#/	4.a\	.	4.aa\	.	2r	.	2r	.
.	.	.	.	.	.	.	.	.	.	.	.	.	.	.	.	.	.	.	.	.	.	.	.	.	.	.	8ee/	8a\	.	8gg\	.	.	.	.	.
*	*	*	*	*	*	*	*	*	*	*v	*v	*	*	*	*	*	*v	*v	*	*	*	*	*	*v	*v	*	*	*	*	*	*	*	*	*	*
=41	=41	=41	=41	=41	=41	=41	=41	=41	=41	=41	=41	=41	=41	=41	=41	=41	=41	=41	=41	=41	=41	=41	=41	=41	=41	=41	=41	=41	=41	=41	=41	=41
1r	.	1ryy	.	1r	.	1r	.	1r	.	1r	.	1r	.	1r	.	1r	.	1r	.	1A	.	4.ff 4.dd\	.	4.dd/	2.a\	.	4.ff\	.	1r	.	1r	.
.	.	.	.	.	.	.	.	.	.	.	.	.	.	.	.	.	.	.	.	.	.	8ee 8cc#X\	.	8cc#X/	.	.	8ee\	.	.	.	.	.
.	.	.	.	.	.	.	.	.	.	.	.	.	.	.	.	.	.	.	.	.	.	4ff 4dd\	.	4dd/	.	.	4ff\	.	.	.	.	.
.	.	.	.	.	.	.	.	.	.	.	.	.	.	.	.	.	.	.	.	.	.	4dd 4b\	.	4dd/	4b\	.	4dd\	.	.	.	.	.
!!LO:PB:g=original
=42	=42	=42	=42	=42	=42	=42	=42	=42	=42	=42	=42	=42	=42	=42	=42	=42	=42	=42	=42	=42	=42	=42	=42	=42	=42	=42	=42	=42	=42	=42	=42	=42
*	*	*	*	*	*	*	*	*	*	*	*	*	*	*	*	*	*	*	*	*	*	*^	*	*	*	*	*	*	*	*	*	*
!	!	!	!	!	!	!	!	!	!	!	!	!	!	!	!	!	!	!	!LO:DY:rj	!	!	!	!	!	!	!	!	!	!	!	!	!	!
1r	.	1ryy	.	1r	.	1r	.	1r	.	1r	.	1r	.	1r	.	1r	.	8aL 8A/	p	2.A\	.	2.ee/	2.cc#X\	.	2.cc#X/	2.a\	.	2.ee\	.	1r	.	1r	.
.	.	.	.	.	.	.	.	.	.	.	.	.	.	.	.	.	.	16aL 16A/	.	.	.	.	.	.	.	.	.	.	.	.	.	.	.
.	.	.	.	.	.	.	.	.	.	.	.	.	.	.	.	.	.	16aJJ 16A/	.	.	.	.	.	.	.	.	.	.	.	.	.	.	.
*	*	*	*	*	*	*	*	*	*	*	*	*	*	*	*	*	*	*rep	*	*	*	*	*	*	*	*	*	*	*	*	*	*	*
.	.	.	.	.	.	.	.	.	.	.	.	.	.	.	.	.	.	8aL 8A/	.	.	.	.	.	.	.	.	.	.	.	.	.	.	.
.	.	.	.	.	.	.	.	.	.	.	.	.	.	.	.	.	.	16aL 16A/	.	.	.	.	.	.	.	.	.	.	.	.	.	.	.
.	.	.	.	.	.	.	.	.	.	.	.	.	.	.	.	.	.	16aJJ 16A/	.	.	.	.	.	.	.	.	.	.	.	.	.	.	.
*	*	*	*	*	*	*	*	*	*	*	*	*	*	*	*	*	*	*Xrep	*	*	*	*	*	*	*	*	*	*	*	*	*	*	*
*	*	*	*	*	*	*	*	*	*	*	*	*	*	*	*	*	*	*rep	*	*	*	*	*	*	*	*	*	*	*	*	*	*	*
.	.	.	.	.	.	.	.	.	.	.	.	.	.	.	.	.	.	8aL 8A/	.	.	.	.	.	.	.	.	.	.	.	.	.	.	.
.	.	.	.	.	.	.	.	.	.	.	.	.	.	.	.	.	.	16aL 16A/	.	.	.	.	.	.	.	.	.	.	.	.	.	.	.
.	.	.	.	.	.	.	.	.	.	.	.	.	.	.	.	.	.	16aJJ 16A/	.	.	.	.	.	.	.	.	.	.	.	.	.	.	.
*	*	*	*	*	*	*	*	*	*	*	*	*	*	*	*	*	*	*Xrep	*	*	*	*	*	*	*	*	*	*	*	*	*	*	*
.	.	.	.	.	.	.	.	.	.	.	.	.	.	.	.	.	.	8aL 8A/	.	4A\	.	4gg 4ee\	4ryy	.	4cc#/	4a\	.	4cc#X\	.	.	.	.	.
.	.	.	.	.	.	.	.	.	.	.	.	.	.	.	.	.	.	8aJ 8A/	.	.	.	.	.	.	.	.	.	.	.	.	.	.	.
*	*	*	*	*	*	*	*	*	*	*	*	*	*	*	*	*	*	*	*	*	*	*v	*v	*	*	*	*	*	*	*	*	*	*
=43	=43	=43	=43	=43	=43	=43	=43	=43	=43	=43	=43	=43	=43	=43	=43	=43	=43	=43	=43	=43	=43	=43	=43	=43	=43	=43	=43	=43	=43	=43	=43	=43
1r	.	1ryy	.	1r	.	1r	.	1r	.	1r	.	1r	.	1r	.	1r	.	1r	.	1A	.	4.ff\	<	4.dd/	2.a\	.	4.dd\	<	1r	.	1r	.
.	.	.	.	.	.	.	.	.	.	.	.	.	.	.	.	.	.	.	.	.	.	8ee\	.	8cc#X/	.	<	8cc#X\	.	.	.	.	.
.	.	.	.	.	.	.	.	.	.	.	.	.	.	.	.	.	.	.	.	.	.	4ff\	.	4dd/	.	.	4dd\	.	.	.	.	.
.	.	.	.	.	f	.	.	.	f	.	.	.	.	.	.	.	f	.	f	.	.	4dd\	[	4ff/	4a\	[[	4ff\	[[	.	.	.	f
*	*	*	*	*	*	*	*	*	*	*	*	*	*	*	*	*	*	*	*	*	*	*	*	*v	*v	*	*	*	*	*	*	*
=44	=44	=44	=44	=44	=44	=44	=44	=44	=44	=44	=44	=44	=44	=44	=44	=44	=44	=44	=44	=44	=44	=44	=44	=44	=44	=44	=44	=44	=44	=44	=44
*	*	*	*	*	*	*	*	*	*	*^	*	*	*	*	*	*	*	*^	*	*	*	*^	*	*	*	*	*	*	*	*	*
!	!LO:DY:rj	!	!LO:DY:rj	!	!	!	!	!	!	!	!	!	!	!	!	!	!	!	!	!	!	!	!	!	!	!LO:DY:rj	!	!LO:DY:rj	!	!	!	!	!	!
4AA/	f	4AA/yy	fy	4a 4e 4A\	.	4aa 4cc#X 4e\	.	4aa 4cc#X 4e\	.	4Ree/	4Ra\	.	4AA/	.	4A\	.	4e 4c#X\	.	4a/	4a\	.	4A\	.	4ee/	4cc#X\	f	4ee 4cc#X\	f	4aa\	f	4aaa\yy	.	4aaa\	.
4r	.	4ryy	.	4r	.	4r	.	4r	.	4ryy	4r	.	4r	.	4r	.	4r	.	4r	4ryy	.	4r	.	4r	4ryy	.	4r	.	4r	.	4ryy	.	4r	.
.	.	.	.	.	.	.	.	.	.	.	.	.	.	.	.	.	.	.	.	.	.	.	.	.	.	.	.	.	.	.	(y32qqgg#X/LLLyy	.	(32qqgg#X/LLL	p
.	.	.	.	.	.	.	.	.	.	.	.	.	.	.	.	.	.	.	.	.	.	.	.	.	.	.	.	.	.	.	32qqaa/yy	.	32qqaa/	.
.	.	.	.	.	.	.	.	.	.	.	.	.	.	.	.	.	.	.	.	.	.	.	.	.	.	.	.	.	.	.	32qqbb/JJJ)yy	.	32qqbb/JJJ)	.
2r	.	2ryy	.	2r	.	2r	.	2r	.	2ryy	2r	.	2r	.	2r	.	2r	.	2r	2ryy	.	2r	.	2r	2ryy	.	2r	.	2r	.	4aa\yy	.	4aa\	.
.	.	.	.	.	.	.	.	.	.	.	.	.	.	.	.	.	.	.	.	.	.	.	.	.	.	.	.	.	.	.	4ryy	.	4r	.
*	*	*	*	*	*	*	*	*	*	*v	*v	*	*	*	*	*	*	*	*v	*v	*	*	*	*v	*v	*	*	*	*	*	*	*	*	*
==	==	==	==	==	==	==	==	==	==	==	==	==	==	==	==	==	==	==	==	==	==	==	==	==	==	==	==	==	==	==	==
*-	*-	*-	*-	*-	*-	*-	*-	*-	*-	*-	*-	*-	*-	*-	*-	*-	*-	*-	*-	*-	*-	*-	*-	*-	*-	*-	*-	*-	*-	*-	*-
!!!system-decoration: ({s1,s2}s3,s4,s5,s6,s7{g1}s10,s11{g2}s14{s15,s16})
!!!RDF**kern: > = above
!!!RDF**kern: < = below
!!!RDF**kern: | = vertical stroke
!!!RDF**kern: N = linked
!!!ENC: Marta Lawrence
!!!END: 2021-06-14
!!!ENC: Andrzej Gręziak
!!!END: 2021-06-06
